; generated by Slic3r 1.2.9 on 2020-11-21 at 14:28:56

; external perimeters extrusion width = 0.40mm
; perimeters extrusion width = 0.40mm
; infill extrusion width = 0.67mm
; solid infill extrusion width = 0.67mm
; top infill extrusion width = 0.40mm

M107
;D3D:START:START
T0
M104 S215 T0

G21
G90
M107
T0
G28
G29
M109 T0 S215 T0
G0 F3000
M107
T0
G92 E0
G0 X0 Y149 Z0.1 F3600
G1 Y49 E6.5 F1200
G0 Z1
G92 E0
G21 ; set units to millimeters
G90 ; use absolute coordinates
M82 ; use absolute distances for extrusion
G92 E0
G1 Z0.300 F6000.000
G1 E-2.00000 F1200.00000
G92 E0
G1 Z0.800 F6000.000
G1 X41.770 Y42.699 F6000.000
G1 Z0.300 F6000.000
G1 E2.00000 F1200.00000
G1 X43.528 Y41.187 E2.10372 F1800.000
G1 X45.693 Y40.356 E2.20744
G1 X47.000 Y40.229 E2.26617
G1 X103.000 Y40.229 E4.77104
G1 X105.285 Y40.626 E4.87476
G1 X107.301 Y41.770 E4.97848
G1 X108.813 Y43.528 E5.08220
G1 X109.644 Y45.693 E5.18592
G1 X109.771 Y47.000 E5.24465
G1 X109.771 Y103.000 E7.74952
G1 X109.374 Y105.285 E7.85324
G1 X108.230 Y107.301 E7.95696
G1 X106.472 Y108.813 E8.06068
G1 X104.307 Y109.644 E8.16440
G1 X103.000 Y109.771 E8.22313
G1 X47.000 Y109.771 E10.72800
G1 X44.715 Y109.374 E10.83172
G1 X42.699 Y108.230 E10.93544
G1 X41.187 Y106.472 E11.03916
G1 X40.356 Y104.307 E11.14288
G1 X40.229 Y103.000 E11.20161
G1 X40.229 Y47.000 E13.70648
G1 X40.626 Y44.715 E13.81020
G1 X41.741 Y42.751 E13.91124
G1 X42.153 Y42.843 F6000.000
G1 X43.896 Y41.419 E14.01194 F1800.000
G1 X47.000 Y40.614 E14.15536
G1 X103.000 Y40.614 E16.66023
G1 X105.216 Y41.011 E16.76093
G1 X107.157 Y42.153 E16.86163
G1 X108.581 Y43.896 E16.96233
G1 X109.386 Y47.000 E17.10575
G1 X109.386 Y103.000 E19.61062
G1 X108.989 Y105.216 E19.71133
G1 X107.847 Y107.157 E19.81203
G1 X106.104 Y108.581 E19.91273
G1 X103.000 Y109.386 E20.05615
G1 X47.000 Y109.386 E22.56102
G1 X44.784 Y108.989 E22.66172
G1 X42.843 Y107.847 E22.76242
G1 X41.419 Y106.104 E22.86312
G1 X40.614 Y103.000 E23.00654
G1 X40.614 Y47.000 E25.51141
G1 X41.011 Y44.784 E25.61211
G1 X42.122 Y42.895 E25.71013
G1 E23.71013 F1200.00000
G92 E0
G1 Z0.800 F6000.000
G1 X93.374 Y93.492 F6000.000
G1 Z0.300 F6000.000
G1 E2.00000 F1200.00000
G1 X93.891 Y93.080 E2.02957 F1800.000
G1 X94.507 Y92.838 E2.05913
G1 X95.144 Y92.790 E2.08774
G1 X95.807 Y92.934 E2.11808
G1 X96.386 Y93.268 E2.14795
G1 X96.841 Y93.770 E2.17829
G1 X97.119 Y94.346 E2.20690
G1 X97.217 Y95.000 E2.23646
G1 X97.119 Y95.654 E2.26603
G1 X96.832 Y96.249 E2.29560
G1 X96.383 Y96.734 E2.32516
G1 X95.810 Y97.064 E2.35473
G1 X95.166 Y97.211 E2.38429
G1 X94.507 Y97.162 E2.41386
G1 X93.891 Y96.920 E2.44343
G1 X93.374 Y96.508 E2.47299
G1 X93.002 Y95.962 E2.50256
G1 X92.806 Y95.327 E2.53228
G1 X92.814 Y94.649 E2.56262
G1 X93.002 Y94.038 E2.59122
G1 X93.341 Y93.541 E2.61811
G1 X93.660 Y93.757 F6000.000
G1 X94.086 Y93.417 E2.64247 F1800.000
G1 X94.593 Y93.218 E2.66684
G1 X95.117 Y93.179 E2.69034
G1 X95.667 Y93.298 E2.71548
G1 X96.141 Y93.572 E2.73996
G1 X96.518 Y93.988 E2.76510
G1 X96.746 Y94.461 E2.78861
G1 X96.828 Y95.000 E2.81297
G1 X96.746 Y95.539 E2.83734
G1 X96.510 Y96.029 E2.86171
G1 X96.139 Y96.429 E2.88607
G1 X95.668 Y96.701 E2.91044
G1 X95.137 Y96.822 E2.93481
G1 X94.593 Y96.782 E2.95917
G1 X94.086 Y96.583 E2.98354
G1 X93.660 Y96.243 E3.00791
G1 X93.353 Y95.793 E3.03227
G1 X93.193 Y95.271 E3.05669
G1 X93.199 Y94.709 E3.08184
G1 X93.353 Y94.207 E3.10534
G1 X93.627 Y93.807 E3.12702
G1 X93.562 Y93.369 F6000.000
G1 X95.166 Y57.211 F6000.000
G1 X94.507 Y57.162 E3.15659 F1800.000
G1 X93.891 Y56.920 E3.18615
G1 X93.374 Y56.508 E3.21572
G1 X93.002 Y55.962 E3.24529
G1 X92.807 Y55.330 E3.27485
G1 X92.807 Y54.669 E3.30442
G1 X93.002 Y54.038 E3.33398
G1 X93.374 Y53.492 E3.36355
G1 X93.891 Y53.080 E3.39312
G1 X94.507 Y52.838 E3.42268
G1 X95.144 Y52.790 E3.45129
G1 X95.807 Y52.934 E3.48163
G1 X96.385 Y53.268 E3.51150
G1 X96.841 Y53.770 E3.54184
G1 X97.119 Y54.346 E3.57045
G1 X97.217 Y55.000 E3.60001
G1 X97.119 Y55.654 E3.62958
G1 X96.832 Y56.249 E3.65915
G1 X96.383 Y56.734 E3.68871
G1 X95.810 Y57.064 E3.71828
G1 X95.224 Y57.198 E3.74516
G1 X95.137 Y56.822 F6000.000
G1 X94.593 Y56.782 E3.76953 F1800.000
G1 X94.086 Y56.583 E3.79389
G1 X93.660 Y56.243 E3.81826
G1 X93.353 Y55.793 E3.84263
G1 X93.193 Y55.272 E3.86700
G1 X93.193 Y54.728 E3.89136
G1 X93.353 Y54.207 E3.91573
G1 X93.660 Y53.757 E3.94010
G1 X94.086 Y53.417 E3.96446
G1 X94.593 Y53.218 E3.98883
G1 X95.117 Y53.179 E4.01233
G1 X95.667 Y53.298 E4.03747
G1 X96.141 Y53.572 E4.06195
G1 X96.518 Y53.988 E4.08709
G1 X96.746 Y54.461 E4.11059
G1 X96.828 Y55.000 E4.13496
G1 X96.746 Y55.539 E4.15933
G1 X96.510 Y56.029 E4.18369
G1 X96.139 Y56.429 E4.20806
G1 X95.668 Y56.701 E4.23243
G1 X95.195 Y56.809 E4.25411
G1 X94.945 Y57.174 F6000.000
G1 X57.217 Y55.000 F6000.000
G1 X57.119 Y55.654 E4.28368 F1800.000
G1 X56.832 Y56.249 E4.31324
G1 X56.383 Y56.734 E4.34281
G1 X55.810 Y57.064 E4.37238
G1 X55.166 Y57.211 E4.40194
G1 X54.507 Y57.162 E4.43151
G1 X53.891 Y56.920 E4.46107
G1 X53.374 Y56.508 E4.49064
G1 X53.002 Y55.962 E4.52021
G1 X52.806 Y55.327 E4.54992
G1 X52.814 Y54.649 E4.58027
G1 X53.002 Y54.038 E4.60887
G1 X53.374 Y53.492 E4.63844
G1 X53.891 Y53.080 E4.66800
G1 X54.507 Y52.838 E4.69757
G1 X55.144 Y52.790 E4.72618
G1 X55.807 Y52.934 E4.75652
G1 X56.383 Y53.266 E4.78624
G1 X56.832 Y53.751 E4.81580
G1 X57.119 Y54.346 E4.84537
G1 X57.209 Y54.941 E4.87225
G1 X56.828 Y55.000 F6000.000
G1 X56.746 Y55.539 E4.89662 F1800.000
G1 X56.510 Y56.029 E4.92098
G1 X56.139 Y56.429 E4.94535
G1 X55.668 Y56.701 E4.96972
G1 X55.137 Y56.822 E4.99408
G1 X54.593 Y56.782 E5.01845
G1 X54.086 Y56.583 E5.04282
G1 X53.660 Y56.243 E5.06718
G1 X53.353 Y55.793 E5.09155
G1 X53.193 Y55.271 E5.11597
G1 X53.199 Y54.709 E5.14112
G1 X53.353 Y54.207 E5.16462
G1 X53.660 Y53.757 E5.18898
G1 X54.086 Y53.417 E5.21335
G1 X54.593 Y53.218 E5.23772
G1 X55.117 Y53.179 E5.26122
G1 X55.667 Y53.298 E5.28636
G1 X56.139 Y53.571 E5.31078
G1 X56.510 Y53.971 E5.33515
G1 X56.746 Y54.461 E5.35952
G1 X56.819 Y54.941 E5.38120
G1 X57.164 Y55.217 F6000.000
G1 X55.144 Y92.790 F6000.000
G1 X55.807 Y92.934 E5.41154 F1800.000
G1 X56.383 Y93.266 E5.44126
G1 X56.832 Y93.751 E5.47082
G1 X57.119 Y94.346 E5.50039
G1 X57.217 Y95.000 E5.52996
G1 X57.119 Y95.654 E5.55952
G1 X56.832 Y96.249 E5.58909
G1 X56.383 Y96.734 E5.61866
G1 X55.810 Y97.064 E5.64822
G1 X55.166 Y97.211 E5.67779
G1 X54.507 Y97.162 E5.70735
G1 X53.891 Y96.920 E5.73692
G1 X53.374 Y96.508 E5.76649
G1 X53.002 Y95.962 E5.79605
G1 X52.806 Y95.327 E5.82577
G1 X52.814 Y94.649 E5.85611
G1 X53.002 Y94.038 E5.88472
G1 X53.374 Y93.492 E5.91429
G1 X53.891 Y93.080 E5.94385
G1 X54.507 Y92.838 E5.97342
G1 X55.084 Y92.795 E5.99934
G1 X55.117 Y93.179 F6000.000
G1 X55.667 Y93.298 E6.02448 F1800.000
G1 X56.139 Y93.571 E6.04890
G1 X56.510 Y93.971 E6.07327
G1 X56.746 Y94.461 E6.09764
G1 X56.828 Y95.000 E6.12200
G1 X56.746 Y95.539 E6.14637
G1 X56.510 Y96.029 E6.17074
G1 X56.139 Y96.429 E6.19510
G1 X55.668 Y96.701 E6.21947
G1 X55.137 Y96.822 E6.24384
G1 X54.593 Y96.782 E6.26820
G1 X54.086 Y96.583 E6.29257
G1 X53.660 Y96.243 E6.31694
G1 X53.353 Y95.793 E6.34130
G1 X53.193 Y95.271 E6.36573
G1 X53.199 Y94.709 E6.39087
G1 X53.353 Y94.207 E6.41437
G1 X53.660 Y93.757 E6.43874
G1 X54.086 Y93.417 E6.46310
G1 X54.593 Y93.218 E6.48747
G1 X55.057 Y93.184 E6.50829
G1 X55.356 Y92.858 F6000.000
G1 E4.50829 F1200.00000
G92 E0
G1 Z0.800 F6000.000
G1 X47.611 Y102.389 F6000.000
G1 Z0.300 F6000.000
G1 E2.00000 F1200.00000
G1 X47.611 Y47.611 E4.45025 F1800.000
G1 X102.389 Y47.611 E6.90049
G1 X102.389 Y102.389 E9.35074
G1 X47.671 Y102.389 E11.79830
G1 X47.225 Y102.775 F6000.000
G1 X47.225 Y47.225 E14.28305 F1800.000
G1 X102.775 Y47.225 E16.76779
G1 X102.775 Y102.775 E19.25254
G1 X47.285 Y102.775 E21.73460
G1 X47.425 Y102.429 F6000.000
G1 X47.837 Y101.960 F6000.000
G1 X48.040 Y102.163 E21.74750 F1800.000
G1 X48.587 Y102.163 E21.77201
G1 X47.837 Y101.413 E21.81959
G1 X47.837 Y100.867 E21.84410
G1 X49.133 Y102.163 E21.92634
G1 X49.680 Y102.163 E21.95086
G1 X47.837 Y100.320 E22.06777
G1 X47.837 Y99.773 E22.09228
G1 X50.227 Y102.163 E22.24386
G1 X50.774 Y102.163 E22.26837
G1 X47.837 Y99.226 E22.45462
G1 X47.837 Y98.680 E22.47913
G1 X51.320 Y102.163 E22.70005
G1 X51.867 Y102.163 E22.72456
G1 X47.837 Y98.133 E22.98015
G1 X47.837 Y97.586 E23.00466
G1 X52.414 Y102.163 E23.29492
G1 X52.960 Y102.163 E23.31943
G1 X47.837 Y97.040 E23.64435
G1 X47.837 Y96.493 E23.66887
G1 X53.507 Y102.163 E24.02846
G1 X54.054 Y102.163 E24.05297
G1 X47.837 Y95.946 E24.44723
G1 X47.837 Y95.400 E24.47174
G1 X54.600 Y102.163 E24.90067
G1 X55.147 Y102.163 E24.92519
G1 X47.837 Y94.853 E25.38878
G1 X47.837 Y94.306 E25.41330
G1 X55.694 Y102.163 E25.91156
G1 X56.241 Y102.163 E25.93608
G1 X47.837 Y93.759 E26.46901
G1 X47.837 Y93.213 E26.49352
G1 X56.787 Y102.163 E27.06113
G1 X57.334 Y102.163 E27.08564
G1 X47.837 Y92.666 E27.68791
G1 X47.837 Y92.119 E27.71243
G1 X57.881 Y102.163 E28.34937
G1 X58.427 Y102.163 E28.37388
G1 X47.837 Y91.573 E29.04549
G1 X52.721 Y95.910 F6000.000
G1 X47.837 Y91.026 E29.35520 F1800.000
G1 X47.837 Y90.479 E29.37972
G1 X52.582 Y95.225 E29.68067
G1 X52.588 Y94.684 E29.70492
G1 X47.837 Y89.933 E30.00624
G1 X47.837 Y89.386 E30.03076
G1 X52.717 Y94.266 E30.34023
G1 X52.876 Y93.878 E30.35902
G1 X47.837 Y88.839 E30.67858
G1 X47.837 Y88.292 E30.70310
G1 X53.097 Y93.553 E31.03672
G1 X53.353 Y93.262 E31.05409
G1 X47.837 Y87.746 E31.40391
G1 X47.837 Y87.199 E31.42842
G1 X53.657 Y93.020 E31.79754
G1 X54.003 Y92.819 E31.81547
G1 X47.837 Y86.652 E32.20652
G1 X47.837 Y86.106 E32.23104
G1 X54.396 Y92.665 E32.64699
G1 X54.868 Y92.590 E32.66842
G1 X47.837 Y85.559 E33.11431
G1 X47.837 Y85.012 E33.13883
G1 X55.425 Y92.600 E33.62001
G1 X56.226 Y92.855 E33.65774
G1 X47.837 Y84.466 E34.18976
G1 X54.090 Y97.279 F6000.000
G1 X58.974 Y102.163 E34.49949 F1800.000
G1 X59.521 Y102.163 E34.52401
G1 X54.772 Y97.415 E34.82514
G1 X55.300 Y97.396 E34.84883
G1 X60.067 Y102.163 E35.15116
G1 X60.614 Y102.163 E35.17568
G1 X55.745 Y97.294 E35.48445
G1 X56.113 Y97.116 E35.50280
G1 X61.161 Y102.163 E35.82290
G1 X61.708 Y102.163 E35.84742
G1 X56.460 Y96.916 E36.18021
G1 X56.731 Y96.640 E36.19754
G1 X62.254 Y102.163 E36.54778
G1 X62.801 Y102.163 E36.57230
G1 X56.994 Y96.357 E36.94052
G1 X57.176 Y95.992 E36.95880
G1 X63.348 Y102.163 E37.35015
G1 X63.894 Y102.163 E37.37466
G1 X57.342 Y95.612 E37.79015
G1 X57.414 Y95.136 E37.81169
G1 X64.441 Y102.163 E38.25730
G1 X64.988 Y102.163 E38.28182
G1 X57.394 Y94.570 E38.76334
G1 X57.140 Y93.769 E38.80103
G1 X65.534 Y102.163 E39.33334
G1 X66.081 Y102.163 E39.35786
G1 X47.837 Y83.919 E40.51483
G1 X47.837 Y83.372 E40.53934
G1 X66.628 Y102.163 E41.73098
G1 X67.175 Y102.163 E41.75549
G1 X47.837 Y82.825 E42.98180
G1 X47.837 Y82.279 E43.00632
G1 X67.721 Y102.163 E44.26729
G1 X68.268 Y102.163 E44.29181
G1 X47.837 Y81.732 E45.58745
G1 X47.837 Y81.185 E45.61197
G1 X68.815 Y102.163 E46.94228
G1 X69.361 Y102.163 E46.96680
G1 X47.837 Y80.639 E48.33178
G1 X47.837 Y80.092 E48.35629
G1 X69.908 Y102.163 E49.75594
G1 X70.455 Y102.163 E49.78046
G1 X47.837 Y79.545 E51.21478
G1 X47.837 Y78.999 E51.23929
G1 X71.001 Y102.163 E52.70828
G1 X71.548 Y102.163 E52.73280
G1 X47.837 Y78.452 E54.23645
G1 X47.837 Y77.905 E54.26097
G1 X72.095 Y102.163 E55.79929
G1 X72.642 Y102.163 E55.82381
G1 X47.837 Y77.358 E57.39680
G1 X47.837 Y76.812 E57.42132
G1 X73.188 Y102.163 E59.02898
G1 X73.735 Y102.163 E59.05350
G1 X47.837 Y76.265 E60.69583
G1 X47.837 Y75.718 E60.72034
G1 X74.282 Y102.163 E62.39734
G1 X74.828 Y102.163 E62.42186
G1 X47.837 Y75.172 E64.13353
G1 X47.837 Y74.625 E64.15804
G1 X75.375 Y102.163 E65.90438
G1 X75.922 Y102.163 E65.92890
G1 X47.837 Y74.078 E67.70990
G1 X47.837 Y73.532 E67.73442
G1 X76.468 Y102.163 E69.55009
G1 X77.015 Y102.163 E69.57461
G1 X47.837 Y72.985 E71.42495
G1 X47.837 Y72.438 E71.44947
G1 X77.562 Y102.163 E73.33448
G1 X78.109 Y102.163 E73.35899
G1 X47.837 Y71.891 E75.27868
G1 X47.837 Y71.345 E75.30319
G1 X78.655 Y102.163 E77.25754
G1 X79.202 Y102.163 E77.28206
G1 X47.837 Y70.798 E79.27107
G1 X47.837 Y70.251 E79.29559
G1 X79.749 Y102.163 E81.31928
G1 X80.295 Y102.163 E81.34379
G1 X47.837 Y69.705 E83.40215
G1 X47.837 Y69.158 E83.42666
G1 X80.842 Y102.163 E85.51969
G1 X81.389 Y102.163 E85.54420
G1 X47.837 Y68.611 E87.67190
G1 X47.837 Y68.065 E87.69641
G1 X81.935 Y102.163 E89.85877
G1 X82.482 Y102.163 E89.88329
G1 X47.837 Y67.518 E92.08032
G1 X47.837 Y66.971 E92.10483
G1 X83.029 Y102.163 E94.33653
G1 X83.576 Y102.163 E94.36105
G1 X47.837 Y66.424 E96.62742
G1 X47.837 Y65.878 E96.65193
G1 X84.122 Y102.163 E98.95297
G1 X84.669 Y102.163 E98.97748
G1 X47.837 Y65.331 E101.31319
G1 X47.837 Y64.784 E101.33770
G1 X85.216 Y102.163 E103.70808
G1 X85.762 Y102.163 E103.73259
G1 X47.837 Y64.238 E106.13764
G1 X47.837 Y63.691 E106.16215
G1 X86.309 Y102.163 E108.60186
G1 X86.856 Y102.163 E108.62638
G1 X47.837 Y63.144 E111.10076
G1 X47.837 Y62.598 E111.12527
G1 X87.402 Y102.163 E113.63432
G1 X87.949 Y102.163 E113.65884
G1 X47.837 Y62.051 E116.20256
G1 X47.837 Y61.504 E116.22707
G1 X88.496 Y102.163 E118.80546
G1 X89.043 Y102.163 E118.82997
G1 X47.837 Y60.957 E121.44303
G1 X47.837 Y60.411 E121.46754
G1 X89.589 Y102.163 E124.11527
G1 X90.136 Y102.163 E124.13978
G1 X47.837 Y59.864 E126.82218
G1 X47.837 Y59.317 E126.84669
G1 X90.683 Y102.163 E129.56375
G1 X91.229 Y102.163 E129.58827
G1 X47.837 Y58.771 E132.34000
G1 X47.837 Y58.224 E132.36451
G1 X91.776 Y102.163 E135.15091
G1 X92.323 Y102.163 E135.17543
G1 X47.837 Y57.677 E137.99650
G1 X47.837 Y57.131 E138.02101
G1 X92.869 Y102.163 E140.87675
G1 X93.416 Y102.163 E140.90126
G1 X47.837 Y56.584 E143.79167
G1 X47.837 Y56.037 E143.81618
G1 X93.963 Y102.163 E146.74126
G1 X94.510 Y102.163 E146.76577
G1 X47.837 Y55.490 E149.72551
G1 X47.837 Y54.944 E149.75003
G1 X95.056 Y102.163 E152.74444
G1 X95.603 Y102.163 E152.76895
G1 X47.837 Y54.397 E155.79803
G1 X47.837 Y53.850 E155.82255
G1 X96.150 Y102.163 E158.88630
G1 X96.696 Y102.163 E158.91081
G1 X47.837 Y53.304 E162.00923
G1 X47.837 Y52.757 E162.03374
G1 X97.243 Y102.163 E165.16683
G1 X97.790 Y102.163 E165.19134
G1 X47.837 Y52.210 E168.35910
G1 X47.837 Y51.664 E168.38361
G1 X98.336 Y102.163 E171.58604
G1 X98.883 Y102.163 E171.61055
G1 X93.940 Y97.221 E171.92400
G1 X94.674 Y97.407 E171.95795
G1 X99.430 Y102.163 E172.25955
G1 X99.977 Y102.163 E172.28406
G1 X95.226 Y97.413 E172.58533
G1 X95.671 Y97.311 E172.60580
G1 X100.523 Y102.163 E172.91351
G1 X101.070 Y102.163 E172.93802
G1 X96.055 Y97.149 E173.25602
G1 X96.402 Y96.949 E173.27396
G1 X101.617 Y102.163 E173.60465
G1 X102.143 Y102.143 E173.62828
G1 X96.688 Y96.688 E173.97427
G1 X96.951 Y96.404 E173.99161
G1 X102.163 Y101.617 E174.32218
G1 X102.163 Y101.070 E174.34669
G1 X97.147 Y96.053 E174.66482
G1 X97.324 Y95.684 E174.68319
G1 X102.163 Y100.523 E174.99005
G1 X102.163 Y99.977 E175.01456
G1 X97.402 Y95.215 E175.31650
G1 X97.411 Y94.677 E175.34064
G1 X102.163 Y99.430 E175.64204
G1 X102.163 Y98.883 E175.66655
G1 X97.225 Y93.944 E175.97975
G1 X96.011 Y92.731 F6000.000
G1 X57.225 Y53.944 E178.43938 F1800.000
G1 X57.411 Y54.677 E178.47328
G1 X95.309 Y92.575 E180.87656
G1 X94.783 Y92.597 E180.90012
G1 X57.402 Y55.215 E183.27063
G1 X57.325 Y55.684 E183.29195
G1 X94.331 Y92.690 E185.63867
G1 X93.938 Y92.845 E185.65758
G1 X57.147 Y56.053 E187.99067
G1 X56.951 Y56.404 E188.00868
G1 X93.607 Y93.060 E190.33320
G1 X93.302 Y93.303 E190.35064
G1 X56.688 Y56.688 E192.67256
G1 X56.402 Y56.949 E192.68991
G1 X93.061 Y93.607 E195.01459
G1 X92.839 Y93.933 E195.03224
G1 X56.055 Y57.149 E197.36485
G1 X55.671 Y57.311 E197.38356
G1 X92.695 Y94.335 E199.73143
G1 X92.587 Y94.774 E199.75169
G1 X55.226 Y57.413 E202.12093
G1 X54.674 Y57.407 E202.14569
G1 X92.581 Y95.315 E204.54957
G1 X92.761 Y96.041 E204.58313
G1 X53.940 Y57.221 E207.04492
G1 X52.761 Y56.041 F6000.000
G1 X47.837 Y51.117 E207.35720 F1800.000
G1 X47.837 Y50.570 E207.38172
G1 X52.581 Y55.315 E207.68261
G1 X52.587 Y54.774 E207.70686
G1 X47.837 Y50.023 E208.00812
G1 X47.837 Y49.477 E208.03263
G1 X52.695 Y54.335 E208.34075
G1 X52.839 Y53.933 E208.35993
G1 X47.837 Y48.930 E208.67716
G1 X47.837 Y48.383 E208.70168
G1 X53.061 Y53.607 E209.03296
