; generated by Slic3r 1.3.0 on 2021-02-04 at 17:19:58

; external perimeters extrusion width = 0.44mm (2.86mm^3/s)
; perimeters extrusion width = 0.56mm (4.14mm^3/s)
; infill extrusion width = 0.50mm (3.66mm^3/s)
; solid infill extrusion width = 0.56mm (3.10mm^3/s)
; top infill extrusion width = 0.45mm (2.44mm^3/s)

M107
;D3D:START:START
T0
M104 S215 T0

G21
G90
M107
T0
G28
G29
M109 T0 S215 T0
G0 F3000
M107
T0
G92 E0
G0 X0 Y149 Z0.1 F3600
G1 Y49 E6.5 F1200
G0 Z1
G92 E0
; Filament gcode

G21 ; set units to millimeters
G90 ; use absolute coordinates
M82 ; use absolute distances for extrusion
G92 E0
G1 Z0.300 F6000.000
G1 E-2.00000 F1200.00000
G92 E0
G1 Z0.800 F6000.000
G1 X37.862 Y42.562 F6000.000
G1 Z0.300 F6000.000
G1 E2.00000 F1200.00000
G1 F1800
G1 X39.758 Y41.227 E2.10372
G1 X42.650 Y40.579 E2.23628
G1 X97.350 Y40.579 E4.68300
G1 X99.635 Y40.976 E4.78673
G1 X102.138 Y42.562 E4.91929
G1 X102.438 Y42.862 E4.93827
G1 X103.773 Y44.758 E5.04199
G1 X104.421 Y47.650 E5.17455
G1 X104.421 Y102.350 E7.62127
G1 X104.024 Y104.635 E7.72499
G1 X102.438 Y107.138 E7.85755
G1 X102.138 Y107.438 E7.87653
G1 X100.242 Y108.773 E7.98025
G1 X97.350 Y109.421 E8.11281
G1 X42.650 Y109.421 E10.55953
G1 X40.365 Y109.024 E10.66326
G1 X37.862 Y107.438 E10.79582
G1 X37.562 Y107.138 E10.81480
G1 X36.227 Y105.242 E10.91852
G1 X35.579 Y102.350 E11.05108
G1 X35.579 Y47.650 E13.49780
G1 X35.976 Y45.365 E13.60152
G1 X37.562 Y42.862 E13.73408
G1 X37.820 Y42.604 E13.75038
G1 X38.135 Y42.835 F6000.000
G1 F1800
G1 X39.982 Y41.548 E13.85108
G1 X42.650 Y40.964 E13.97323
G1 X97.350 Y40.964 E16.41995
G1 X99.566 Y41.361 E16.52065
G1 X101.865 Y42.835 E16.64280
G1 X102.165 Y43.135 E16.66178
G1 X103.452 Y44.982 E16.76248
G1 X104.036 Y47.650 E16.88463
G1 X104.036 Y102.350 E19.33135
G1 X103.639 Y104.566 E19.43205
G1 X102.165 Y106.865 E19.55420
G1 X101.865 Y107.165 E19.57318
G1 X100.018 Y108.452 E19.67388
G1 X97.350 Y109.036 E19.79603
G1 X42.650 Y109.036 E22.24275
G1 X40.434 Y108.639 E22.34346
G1 X38.135 Y107.165 E22.46561
G1 X37.835 Y106.865 E22.48458
G1 X36.548 Y105.018 E22.58529
G1 X35.964 Y102.350 E22.70744
G1 X35.964 Y47.650 E25.15416
G1 X36.361 Y45.434 E25.25486
G1 X37.835 Y43.135 E25.37701
G1 X38.092 Y42.877 E25.39330
G1 E23.39330 F1200.00000
G92 E0
G1 Z0.800 F6000.000
G1 X86.428 Y92.938 F6000.000
G1 Z0.300 F6000.000
G1 E2.00000 F1200.00000
G1 F1800
G1 X87.195 Y91.977 E2.05499
G1 X88.211 Y91.284 E2.10998
G1 X89.385 Y90.922 E2.16497
G1 X90.615 Y90.922 E2.21996
G1 X91.789 Y91.284 E2.27495
G1 X92.805 Y91.977 E2.32993
G1 X93.572 Y92.938 E2.38492
G1 X94.021 Y94.082 E2.43991
G1 X94.039 Y94.330 E2.45102
G1 X94.113 Y95.308 E2.49490
G1 X93.839 Y96.507 E2.54989
G1 X93.224 Y97.571 E2.60487
G1 X92.323 Y98.408 E2.65986
G1 X91.872 Y98.625 E2.68227
G1 X91.216 Y98.941 E2.71485
G1 X90.000 Y99.124 E2.76984
G1 X88.784 Y98.941 E2.82483
G1 X87.677 Y98.408 E2.87981
G1 X87.309 Y98.067 E2.90223
G1 X86.776 Y97.571 E2.93480
G1 X86.161 Y96.507 E2.98979
G1 X85.887 Y95.308 E3.04478
G1 X85.979 Y94.082 E3.09977
G1 X86.406 Y92.994 E3.15207
G1 X86.766 Y93.133 F6000.000
G1 F1800
G1 X87.460 Y92.263 E3.20186
G1 X88.380 Y91.636 E3.25165
G1 X89.443 Y91.308 E3.30144
G1 X90.557 Y91.308 E3.35123
G1 X91.620 Y91.636 E3.40102
G1 X92.540 Y92.263 E3.45081
G1 X93.234 Y93.133 E3.50060
G1 X93.641 Y94.169 E3.55038
G1 X93.655 Y94.359 E3.55889
G1 X93.724 Y95.279 E3.60017
G1 X93.476 Y96.364 E3.64996
G1 X92.920 Y97.328 E3.69975
G1 X92.104 Y98.085 E3.74954
G1 X91.704 Y98.278 E3.76935
G1 X91.101 Y98.568 E3.79933
G1 X90.000 Y98.734 E3.84912
G1 X88.899 Y98.568 E3.89891
G1 X87.896 Y98.085 E3.94869
G1 X87.572 Y97.784 E3.96851
G1 X87.081 Y97.328 E3.99848
G1 X86.524 Y96.364 E4.04827
G1 X86.276 Y95.279 E4.09806
G1 X86.359 Y94.169 E4.14785
G1 X86.744 Y93.189 E4.19495
G1 X87.104 Y93.328 F6000.000
G1 F1800
G1 X87.725 Y92.549 E4.23954
G1 X88.549 Y91.987 E4.28413
G1 X89.502 Y91.693 E4.32872
G1 X90.498 Y91.693 E4.37331
G1 X91.451 Y91.987 E4.41790
G1 X92.275 Y92.549 E4.46249
G1 X92.896 Y93.328 E4.50708
G1 X93.260 Y94.256 E4.55167
G1 X93.270 Y94.388 E4.55758
G1 X93.335 Y95.250 E4.59625
G1 X93.113 Y96.222 E4.64084
G1 X92.615 Y97.085 E4.68543
G1 X91.884 Y97.763 E4.73002
G1 X91.537 Y97.930 E4.74723
G1 X90.986 Y98.196 E4.77461
G1 X90.000 Y98.344 E4.81920
G1 X89.014 Y98.196 E4.86379
G1 X88.116 Y97.763 E4.90838
G1 X87.385 Y97.085 E4.95297
G1 X86.887 Y96.222 E4.99756
G1 X86.665 Y95.250 E5.04215
G1 X86.740 Y94.256 E5.08673
G1 X87.082 Y93.384 E5.12864
G1 X86.904 Y92.982 F6000.000
G1 E3.12864 F1200.00000
G92 E0
G1 Z0.800 F6000.000
G1 X54.113 Y95.308 F6000.000
G1 Z0.300 F6000.000
G1 E2.00000 F1200.00000
G1 F1800
G1 X53.839 Y96.507 E2.05499
G1 X53.224 Y97.571 E2.10998
G1 X52.323 Y98.408 E2.16497
G1 X51.216 Y98.941 E2.21995
G1 X50.000 Y99.124 E2.27494
G1 X48.784 Y98.941 E2.32993
G1 X47.677 Y98.408 E2.38492
G1 X47.309 Y98.067 E2.40733
G1 X46.776 Y97.571 E2.43991
G1 X46.161 Y96.507 E2.49490
G1 X45.887 Y95.308 E2.54989
G1 X45.979 Y94.082 E2.60487
G1 X46.428 Y92.938 E2.65986
G1 X47.040 Y92.171 E2.70374
G1 X47.195 Y91.977 E2.71485
G1 X48.211 Y91.284 E2.76984
G1 X49.385 Y90.922 E2.82483
G1 X50.615 Y90.922 E2.87981
G1 X51.093 Y91.070 E2.90223
G1 X51.789 Y91.284 E2.93481
G1 X52.805 Y91.977 E2.98979
G1 X53.572 Y92.938 E3.04478
G1 X54.021 Y94.082 E3.09977
G1 X54.108 Y95.248 E3.15207
G1 X53.724 Y95.279 F6000.000
G1 F1800
G1 X53.476 Y96.364 E3.20186
G1 X52.919 Y97.328 E3.25165
G1 X52.104 Y98.085 E3.30144
G1 X51.101 Y98.568 E3.35123
G1 X50.000 Y98.734 E3.40102
G1 X48.899 Y98.568 E3.45081
G1 X47.896 Y98.085 E3.50060
G1 X47.572 Y97.784 E3.52041
G1 X47.081 Y97.328 E3.55038
G1 X46.524 Y96.364 E3.60017
G1 X46.276 Y95.279 E3.64996
G1 X46.359 Y94.169 E3.69975
G1 X46.766 Y93.133 E3.74954
G1 X47.341 Y92.411 E3.79082
G1 X47.460 Y92.263 E3.79933
G1 X48.380 Y91.636 E3.84912
G1 X49.443 Y91.308 E3.89891
G1 X50.557 Y91.308 E3.94869
G1 X50.980 Y91.438 E3.96851
G1 X51.620 Y91.636 E3.99848
G1 X52.540 Y92.263 E4.04827
G1 X53.234 Y93.133 E4.09806
G1 X53.641 Y94.169 E4.14785
G1 X53.719 Y95.219 E4.19495
G1 X53.335 Y95.250 F6000.000
G1 F1800
G1 X53.113 Y96.222 E4.23954
G1 X52.615 Y97.085 E4.28413
G1 X51.884 Y97.763 E4.32872
G1 X50.986 Y98.196 E4.37331
G1 X50.000 Y98.344 E4.41790
G1 X49.014 Y98.196 E4.46249
G1 X48.116 Y97.763 E4.50708
G1 X47.834 Y97.501 E4.52429
G1 X47.385 Y97.085 E4.55167
G1 X46.887 Y96.222 E4.59626
G1 X46.665 Y95.250 E4.64085
G1 X46.740 Y94.256 E4.68543
G1 X47.104 Y93.328 E4.73002
G1 X47.643 Y92.652 E4.76870
G1 X47.725 Y92.549 E4.77461
G1 X48.549 Y91.987 E4.81920
G1 X49.502 Y91.693 E4.86379
G1 X50.498 Y91.693 E4.90838
G1 X50.866 Y91.807 E4.92559
G1 X51.451 Y91.987 E4.95297
G1 X52.275 Y92.549 E4.99756
G1 X52.896 Y93.328 E5.04215
G1 X53.260 Y94.256 E5.08674
G1 X53.330 Y95.190 E5.12864
G1 X53.654 Y95.491 F6000.000
G1 E3.12864 F1200.00000
G92 E0
G1 Z0.800 F6000.000
G1 X50.000 Y59.124 F6000.000
G1 Z0.300 F6000.000
G1 E2.00000 F1200.00000
G1 F1800
G1 X48.784 Y58.941 E2.05499
G1 X47.677 Y58.408 E2.10998
G1 X47.309 Y58.067 E2.13239
G1 X46.776 Y57.571 E2.16497
G1 X46.161 Y56.507 E2.21995
G1 X45.887 Y55.308 E2.27494
G1 X45.979 Y54.082 E2.32993
G1 X46.428 Y52.938 E2.38492
G1 X47.040 Y52.171 E2.42880
G1 X47.195 Y51.977 E2.43991
G1 X48.211 Y51.284 E2.49490
G1 X49.385 Y50.922 E2.54989
G1 X50.615 Y50.922 E2.60487
G1 X51.093 Y51.070 E2.62729
G1 X51.789 Y51.284 E2.65986
G1 X52.805 Y51.977 E2.71485
G1 X53.572 Y52.938 E2.76984
G1 X54.021 Y54.082 E2.82483
G1 X54.113 Y55.308 E2.87981
G1 X53.839 Y56.507 E2.93480
G1 X53.224 Y57.571 E2.98979
G1 X52.323 Y58.408 E3.04478
G1 X51.216 Y58.941 E3.09977
G1 X50.059 Y59.115 E3.15207
G1 X50.000 Y58.734 F6000.000
G1 F1800
G1 X48.899 Y58.568 E3.20186
G1 X47.896 Y58.085 E3.25165
G1 X47.572 Y57.784 E3.27146
G1 X47.081 Y57.328 E3.30144
G1 X46.524 Y56.364 E3.35123
G1 X46.276 Y55.279 E3.40102
G1 X46.359 Y54.169 E3.45080
G1 X46.766 Y53.133 E3.50059
G1 X47.341 Y52.411 E3.54187
G1 X47.460 Y52.263 E3.55039
G1 X48.380 Y51.636 E3.60017
G1 X49.443 Y51.308 E3.64996
G1 X50.557 Y51.308 E3.69975
G1 X50.980 Y51.438 E3.71956
G1 X51.620 Y51.636 E3.74954
G1 X52.540 Y52.263 E3.79933
G1 X53.234 Y53.133 E3.84912
G1 X53.641 Y54.169 E3.89891
G1 X53.724 Y55.279 E3.94869
G1 X53.476 Y56.364 E3.99848
G1 X52.919 Y57.328 E4.04827
G1 X52.104 Y58.085 E4.09806
G1 X51.101 Y58.568 E4.14785
G1 X50.059 Y58.725 E4.19495
G1 X50.000 Y58.344 F6000.000
G1 F1800
G1 X49.014 Y58.196 E4.23954
G1 X48.116 Y57.763 E4.28413
G1 X47.834 Y57.501 E4.30134
G1 X47.385 Y57.085 E4.32872
G1 X46.887 Y56.222 E4.37331
G1 X46.665 Y55.250 E4.41790
G1 X46.740 Y54.256 E4.46249
G1 X47.104 Y53.328 E4.50708
G1 X47.643 Y52.652 E4.54576
G1 X47.725 Y52.549 E4.55167
G1 X48.549 Y51.987 E4.59626
G1 X49.502 Y51.693 E4.64085
G1 X50.498 Y51.693 E4.68543
G1 X50.866 Y51.807 E4.70265
G1 X51.451 Y51.987 E4.73002
G1 X52.275 Y52.549 E4.77461
G1 X52.896 Y53.328 E4.81920
G1 X53.260 Y54.256 E4.86379
G1 X53.335 Y55.250 E4.90838
G1 X53.113 Y56.222 E4.95297
G1 X52.615 Y57.085 E4.99756
G1 X51.884 Y57.763 E5.04215
G1 X50.986 Y58.196 E5.08674
G1 X50.059 Y58.335 E5.12864
G1 X49.800 Y58.691 F6000.000
G1 E3.12864 F1200.00000
G92 E0
G1 Z0.800 F6000.000
G1 X85.887 Y55.308 F6000.000
G1 Z0.300 F6000.000
G1 E2.00000 F1200.00000
G1 F1800
G1 X85.979 Y54.082 E2.05498
G1 X86.428 Y52.938 E2.10997
G1 X87.040 Y52.171 E2.15386
G1 X87.195 Y51.977 E2.16497
G1 X88.211 Y51.284 E2.21995
G1 X89.385 Y50.922 E2.27494
G1 X90.615 Y50.922 E2.32993
G1 X91.789 Y51.284 E2.38492
G1 X92.805 Y51.977 E2.43991
G1 X93.572 Y52.938 E2.49490
G1 X94.021 Y54.082 E2.54988
G1 X94.113 Y55.308 E2.60487
G1 X93.839 Y56.507 E2.65986
G1 X93.224 Y57.571 E2.71485
G1 X92.323 Y58.408 E2.76983
G1 X91.216 Y58.941 E2.82482
G1 X90.000 Y59.124 E2.87981
G1 X88.784 Y58.941 E2.93480
G1 X87.677 Y58.408 E2.98979
G1 X86.776 Y57.571 E3.04478
G1 X86.161 Y56.507 E3.09977
G1 X85.901 Y55.367 E3.15207
G1 X86.276 Y55.279 F6000.000
G1 F1800
G1 X86.359 Y54.169 E3.20186
G1 X86.766 Y53.133 E3.25165
G1 X87.341 Y52.411 E3.29293
G1 X87.460 Y52.263 E3.30144
G1 X88.380 Y51.636 E3.35122
G1 X89.443 Y51.308 E3.40101
G1 X90.557 Y51.308 E3.45080
G1 X91.620 Y51.636 E3.50059
G1 X92.540 Y52.263 E3.55038
G1 X93.234 Y53.133 E3.60017
G1 X93.641 Y54.169 E3.64996
G1 X93.724 Y55.279 E3.69975
G1 X93.476 Y56.364 E3.74954
G1 X92.920 Y57.328 E3.79932
G1 X92.104 Y58.085 E3.84911
G1 X91.101 Y58.568 E3.89890
G1 X90.000 Y58.734 E3.94869
G1 X88.899 Y58.568 E3.99848
G1 X87.896 Y58.085 E4.04827
G1 X87.081 Y57.328 E4.09806
G1 X86.524 Y56.364 E4.14785
G1 X86.290 Y55.338 E4.19495
G1 X86.665 Y55.250 F6000.000
G1 F1800
G1 X86.740 Y54.256 E4.23954
G1 X87.104 Y53.328 E4.28413
G1 X87.643 Y52.652 E4.32281
G1 X87.725 Y52.549 E4.32872
G1 X88.549 Y51.987 E4.37331
G1 X89.502 Y51.693 E4.41790
G1 X90.498 Y51.693 E4.46249
G1 X91.451 Y51.987 E4.50708
G1 X92.275 Y52.549 E4.55166
G1 X92.896 Y53.328 E4.59625
G1 X93.260 Y54.256 E4.64084
G1 X93.335 Y55.250 E4.68543
G1 X93.113 Y56.222 E4.73002
G1 X92.615 Y57.085 E4.77461
G1 X91.884 Y57.763 E4.81920
G1 X90.986 Y58.196 E4.86379
G1 X90.000 Y58.344 E4.90838
G1 X89.014 Y58.196 E4.95297
G1 X88.116 Y57.763 E4.99755
G1 X87.385 Y57.085 E5.04214
G1 X86.887 Y56.222 E5.08673
G1 X86.678 Y55.308 E5.12864
G1 X86.305 Y55.076 F6000.000
G1 E3.12864 F1200.00000
G92 E0
G1 Z0.800 F6000.000
G1 X96.654 Y48.346 F6000.000
G1 Z0.300 F6000.000
G1 E2.00000 F1200.00000
G1 F1800
G1 X96.654 Y101.654 E4.38444
G1 X43.346 Y101.654 E6.76887
G1 X43.346 Y48.346 E9.15331
G1 X96.594 Y48.346 E11.53506
G1 X97.039 Y47.961 F6000.000
G1 F1800
G1 X97.039 Y102.039 E13.95399
G1 X42.961 Y102.039 E16.37293
G1 X42.961 Y47.961 E18.79186
G1 X96.979 Y47.961 E21.20811
G1 X97.425 Y47.743 F6000.000
G1 F1800
G1 X97.425 Y102.257 E23.64649
G1 X97.257 Y102.425 E23.65713
G1 X42.743 Y102.425 E26.09552
G1 X42.575 Y102.257 E26.10616
G1 X42.575 Y47.743 E28.54454
G1 X42.743 Y47.575 E28.55518
G1 X97.257 Y47.575 E30.99356
G1 X97.383 Y47.701 E31.00152
G1 X97.225 Y48.089 F6000.000
G1 E29.00152 F1200.00000
G92 E0
G1 Z0.800 F6000.000
G1 X53.589 Y57.482 F6000.000
G1 Z0.300 F6000.000
G1 E2.00000 F1200.00000
G1 F1800
G1 X62.652 Y48.418 E2.57532
G1 X62.105 Y48.418 E2.59989
G1 X53.985 Y56.538 E3.11530
G1 X54.147 Y55.829 E3.14794
G1 X61.558 Y48.418 E3.61834
G1 X61.010 Y48.418 E3.64291
G1 X54.159 Y55.269 E4.07781
G1 X54.121 Y54.760 E4.10072
G1 X60.463 Y48.418 E4.50331
G1 X59.916 Y48.418 E4.52787
G1 X54.070 Y54.264 E4.89897
G1 X53.916 Y53.871 E4.91793
G1 X59.369 Y48.418 E5.26408
G1 X58.821 Y48.418 E5.28865
G1 X53.761 Y53.478 E5.60985
G1 X53.607 Y53.085 E5.62881
G1 X58.274 Y48.418 E5.92507
G1 X57.727 Y48.418 E5.94963
G1 X53.371 Y52.774 E6.22615
G1 X53.128 Y52.470 E6.24363
G1 X57.180 Y48.418 E6.50083
G1 X56.632 Y48.418 E6.52539
G1 X52.885 Y52.166 E6.76326
G1 X52.757 Y52.004 E6.77251
G1 X52.604 Y51.900 E6.78083
G1 X56.085 Y48.418 E7.00185
G1 X55.538 Y48.418 E7.02641
G1 X52.278 Y51.678 E7.23334
G1 X51.953 Y51.456 E7.25102
G1 X54.991 Y48.418 E7.44387
G1 X54.443 Y48.418 E7.46843
G1 X51.622 Y51.240 E7.64752
G1 X51.204 Y51.110 E7.66717
G1 X53.896 Y48.418 E7.83807
G1 X53.349 Y48.418 E7.86263
G1 X50.786 Y50.981 E8.02534
G1 X50.368 Y50.852 E8.04498
G1 X52.802 Y48.418 E8.19950
G1 X52.254 Y48.418 E8.22406
G1 X49.823 Y50.850 E8.37842
G1 X49.276 Y50.850 E8.40298
G1 X51.707 Y48.418 E8.55734
G1 X51.160 Y48.418 E8.58190
G1 X48.601 Y50.977 E8.74433
G1 X47.810 Y51.221 E8.78151
G1 X50.613 Y48.418 E8.95944
G1 X50.065 Y48.418 E8.98400
G1 X43.418 Y55.065 E9.40596
G1 X43.418 Y54.518 E9.43052
G1 X49.518 Y48.418 E9.81774
G1 X48.971 Y48.418 E9.84230
G1 X43.418 Y53.971 E10.19478
G1 X43.418 Y53.424 E10.21934
G1 X48.424 Y48.418 E10.53708
G1 X47.876 Y48.418 E10.56164
G1 X43.418 Y52.876 E10.84464
G1 X43.418 Y52.329 E10.86920
G1 X47.329 Y48.418 E11.11746
G1 X46.782 Y48.418 E11.14203
G1 X43.418 Y51.782 E11.35555
G1 X43.418 Y51.235 E11.38011
G1 X46.235 Y48.418 E11.55890
G1 X45.687 Y48.418 E11.58346
G1 X43.418 Y50.687 E11.72750
G1 X43.418 Y50.140 E11.75207
G1 X45.140 Y48.418 E11.86137
G1 X44.593 Y48.418 E11.88594
G1 X43.418 Y49.593 E11.96051
G1 X43.418 Y49.046 E11.98507
G1 X44.046 Y48.418 E12.02490
G1 E10.02490 F1200.00000
G92 E0
G1 Z0.800 F6000.000
G1 X46.277 Y52.754 F6000.000
G1 Z0.300 F6000.000
G1 E2.00000 F1200.00000
G1 F1800
G1 X43.418 Y55.613 E2.18145
G1 X43.418 Y56.160 E2.20601
G1 X45.923 Y53.655 E2.36502
G1 X45.870 Y54.256 E2.39210
G1 X43.418 Y56.707 E2.54771
G1 X43.418 Y57.254 E2.57227
G1 X45.825 Y54.847 E2.72506
G1 X45.812 Y55.024 E2.73300
G1 X45.883 Y55.337 E2.74740
G1 X43.418 Y57.802 E2.90389
G1 X43.418 Y58.349 E2.92845
G1 X45.985 Y55.782 E3.09139
G1 X46.087 Y56.228 E3.11191
G1 X43.418 Y58.896 E3.28130
G1 X43.418 Y59.443 E3.30587
G1 X46.263 Y56.598 E3.48646
G1 X46.464 Y56.945 E3.50445
G1 X43.418 Y59.991 E3.69776
G1 X43.418 Y60.538 E3.72232
G1 X46.664 Y57.292 E3.92835
G1 X46.784 Y57.501 E3.93916
G1 X46.898 Y57.606 E3.94609
G1 X43.418 Y61.085 E4.16695
G1 X43.418 Y61.632 E4.19151
G1 X47.181 Y57.869 E4.43039
G1 X47.465 Y58.133 E4.44777
G1 X43.418 Y62.180 E4.70467
G1 X43.418 Y62.727 E4.72923
G1 X47.749 Y58.396 E5.00414
G1 X48.112 Y58.581 E5.02241
G1 X43.418 Y63.274 E5.32036
G1 X43.418 Y63.821 E5.34493
G1 X48.481 Y58.758 E5.66632
G1 X48.851 Y58.936 E5.68473
G1 X43.418 Y64.369 E6.02957
G1 X43.418 Y64.916 E6.05413
G1 X49.288 Y59.046 E6.42675
G1 X49.764 Y59.118 E6.44834
G1 X43.418 Y65.463 E6.85115
G1 X43.418 Y66.010 E6.87571
G1 X50.239 Y59.189 E7.30870
G1 X50.314 Y59.201 E7.31207
G1 X50.857 Y59.119 E7.33676
G1 X43.418 Y66.558 E7.80898
G1 X43.418 Y67.105 E7.83355
G1 X51.502 Y59.021 E8.34668
G1 X51.644 Y59.000 E8.35314
G1 X52.467 Y58.604 E8.39411
G1 X43.418 Y67.652 E8.96849
G1 X43.418 Y68.199 E8.99305
G1 X63.199 Y48.418 E10.24873
G1 X63.747 Y48.418 E10.27329
G1 X43.418 Y68.747 E11.56371
G1 X43.418 Y69.294 E11.58827
G1 X64.294 Y48.418 E12.91343
G1 X64.841 Y48.418 E12.93799
G1 X43.418 Y69.841 E14.29789
G1 X43.418 Y70.388 E14.32245
G1 X65.389 Y48.418 E15.71708
G1 X65.936 Y48.418 E15.74165
G1 X43.418 Y70.936 E17.17102
G1 X43.418 Y71.483 E17.19558
G1 X66.483 Y48.418 E18.65969
G1 X67.030 Y48.418 E18.68425
G1 X43.418 Y72.030 E20.18310
G1 X43.418 Y72.578 E20.20767
G1 X67.578 Y48.418 E21.74125
G1 X68.125 Y48.418 E21.76582
G1 X43.418 Y73.125 E23.33414
G1 X43.418 Y73.672 E23.35870
G1 X68.672 Y48.418 E24.96177
