; generated by Slic3r 1.3.0 on 2021-02-04 at 17:19:59

; external perimeters extrusion width = 0.44mm (2.86mm^3/s)
; perimeters extrusion width = 0.56mm (4.14mm^3/s)
; infill extrusion width = 0.50mm (3.66mm^3/s)
; solid infill extrusion width = 0.56mm (3.10mm^3/s)
; top infill extrusion width = 0.45mm (2.44mm^3/s)

M107
;D3D:START:START
T0
M104 S215 T0

G21
G90
M107
T0
G28
G29
M109 T0 S215 T0
G0 F3000
M107
T0
G92 E0
G0 X0 Y149 Z0.1 F3600
G1 Y49 E6.5 F1200
G0 Z1
G92 E0
; Filament gcode

G21 ; set units to millimeters
G90 ; use absolute coordinates
M82 ; use absolute distances for extrusion
G92 E0
G1 Z0.300 F6000.000
G1 E-2.00000 F1200.00000
G92 E0
G1 Z0.800 F6000.000
G1 X43.212 Y42.212 F6000.000
G1 Z0.300 F6000.000
G1 E2.00000 F1200.00000
G1 F1800
G1 X45.108 Y40.877 E2.10372
G1 X48.000 Y40.229 E2.23628
G1 X102.000 Y40.229 E4.65169
G1 X104.285 Y40.626 E4.75541
G1 X106.788 Y42.212 E4.88798
G1 X107.788 Y43.212 E4.95123
G1 X109.123 Y45.108 E5.05496
G1 X109.771 Y48.000 E5.18752
G1 X109.771 Y102.000 E7.60293
G1 X109.374 Y104.285 E7.70665
G1 X107.788 Y106.788 E7.83921
G1 X106.788 Y107.788 E7.90247
G1 X104.892 Y109.123 E8.00619
G1 X102.000 Y109.771 E8.13875
G1 X48.000 Y109.771 E10.55416
G1 X45.715 Y109.374 E10.65788
G1 X43.212 Y107.788 E10.79045
G1 X42.212 Y106.788 E10.85370
G1 X40.877 Y104.892 E10.95742
G1 X40.229 Y102.000 E11.08999
G1 X40.229 Y48.000 E13.50540
G1 X40.626 Y45.715 E13.60912
G1 X42.212 Y43.212 E13.74168
G1 X43.170 Y42.254 E13.80225
G1 X43.485 Y42.485 F6000.000
G1 F1800
G1 X45.332 Y41.198 E13.90296
G1 X48.000 Y40.614 E14.02511
G1 X102.000 Y40.614 E16.44052
G1 X104.216 Y41.011 E16.54122
G1 X106.515 Y42.485 E16.66337
G1 X107.515 Y43.485 E16.72663
G1 X108.802 Y45.332 E16.82733
G1 X109.386 Y48.000 E16.94948
G1 X109.386 Y102.000 E19.36489
G1 X108.989 Y104.216 E19.46559
G1 X107.515 Y106.515 E19.58774
G1 X106.515 Y107.515 E19.65100
G1 X104.668 Y108.802 E19.75170
G1 X102.000 Y109.386 E19.87385
G1 X48.000 Y109.386 E22.28926
G1 X45.784 Y108.989 E22.38996
G1 X43.485 Y107.515 E22.51211
G1 X42.485 Y106.515 E22.57537
G1 X41.198 Y104.668 E22.67607
G1 X40.614 Y102.000 E22.79822
G1 X40.614 Y48.000 E25.21363
G1 X41.011 Y45.784 E25.31433
G1 X42.485 Y43.485 E25.43648
G1 X43.442 Y42.527 E25.49706
G1 E23.49706 F1200.00000
G92 E0
G1 Z0.800 F6000.000
G1 X91.009 Y102.004 F6000.000
G1 Z0.300 F6000.000
G1 E2.00000 F1200.00000
G1 F1800
G1 X90.910 Y101.379 E2.02828
G1 X90.625 Y100.819 E2.05640
G1 X90.181 Y100.375 E2.08450
G1 X89.621 Y100.090 E2.11261
G1 X89.078 Y100.004 E2.13717
G1 X60.922 Y100.004 E3.39662
G1 X60.379 Y100.090 E3.42118
G1 X59.819 Y100.375 E3.44930
G1 X59.375 Y100.819 E3.47740
G1 X59.090 Y101.379 E3.50551
G1 X58.991 Y102.004 E3.53379
G1 X48.413 Y102.004 E4.00695
G1 X47.996 Y101.587 E4.03329
G1 X47.996 Y48.413 E6.41179
G1 X48.413 Y47.996 E6.43813
G1 X58.991 Y47.996 E6.91129
G1 X59.090 Y48.621 E6.93956
G1 X59.375 Y49.181 E6.96768
G1 X59.819 Y49.625 E6.99578
G1 X60.379 Y49.910 E7.02390
G1 X60.922 Y49.996 E7.04846
G1 X89.078 Y49.996 E8.30790
G1 X89.621 Y49.910 E8.33246
G1 X90.181 Y49.625 E8.36058
G1 X90.625 Y49.181 E8.38868
G1 X90.910 Y48.621 E8.41680
G1 X91.009 Y47.996 E8.44508
G1 X101.587 Y47.996 E8.91823
G1 X102.004 Y48.413 E8.94458
G1 X102.004 Y101.587 E11.32307
G1 X101.587 Y102.004 E11.34941
G1 X91.069 Y102.004 E11.81989
G1 X90.611 Y102.389 F6000.000
G1 F1800
G1 X90.611 Y101.952 E11.83945
G1 X90.539 Y101.500 E11.85992
G1 X90.309 Y101.049 E11.88257
G1 X89.951 Y100.691 E11.90521
G1 X89.500 Y100.461 E11.92786
G1 X89.048 Y100.389 E11.94833
G1 X60.952 Y100.389 E13.20507
G1 X60.500 Y100.461 E13.22554
G1 X60.049 Y100.691 E13.24819
G1 X59.691 Y101.049 E13.27083
G1 X59.461 Y101.500 E13.29348
G1 X59.389 Y101.952 E13.31395
G1 X59.389 Y102.389 E13.33351
G1 X48.253 Y102.389 E13.83165
G1 X47.611 Y101.747 E13.87228
G1 X47.611 Y48.253 E16.26506
G1 X48.253 Y47.611 E16.30569
G1 X59.389 Y47.611 E16.80382
G1 X59.389 Y48.048 E16.82339
G1 X59.461 Y48.500 E16.84386
G1 X59.691 Y48.951 E16.86651
G1 X60.049 Y49.309 E16.88915
G1 X60.500 Y49.539 E16.91180
G1 X60.952 Y49.611 E16.93227
G1 X89.048 Y49.611 E18.18900
G1 X89.500 Y49.539 E18.20947
G1 X89.951 Y49.309 E18.23212
G1 X90.309 Y48.951 E18.25476
G1 X90.539 Y48.500 E18.27741
G1 X90.611 Y48.048 E18.29789
G1 X90.611 Y47.611 E18.31745
G1 X101.747 Y47.611 E18.81558
G1 X102.389 Y48.253 E18.85621
G1 X102.389 Y101.747 E21.24900
G1 X101.747 Y102.389 E21.28963
G1 X90.671 Y102.389 E21.78508
G1 X90.225 Y102.775 F6000.000
G1 F1800
G1 X90.225 Y101.982 E21.82053
G1 X90.168 Y101.621 E21.83691
G1 X89.993 Y101.278 E21.85410
G1 X89.722 Y101.007 E21.87128
G1 X89.379 Y100.832 E21.88846
G1 X89.018 Y100.775 E21.90484
G1 X60.982 Y100.775 E23.15886
G1 X60.621 Y100.832 E23.17524
G1 X60.278 Y101.007 E23.19243
G1 X60.007 Y101.278 E23.20961
G1 X59.832 Y101.621 E23.22679
G1 X59.775 Y101.982 E23.24317
G1 X59.775 Y102.775 E23.27863
G1 X48.093 Y102.775 E23.80115
G1 X47.225 Y101.907 E23.85607
G1 X47.225 Y48.093 E26.26315
G1 X48.093 Y47.225 E26.31807
G1 X59.775 Y47.225 E26.84059
G1 X59.775 Y48.018 E26.87605
G1 X59.832 Y48.379 E26.89243
G1 X60.007 Y48.722 E26.90962
G1 X60.278 Y48.993 E26.92680
G1 X60.621 Y49.168 E26.94398
G1 X60.982 Y49.225 E26.96036
G1 X89.018 Y49.225 E28.21438
G1 X89.379 Y49.168 E28.23076
G1 X89.722 Y48.993 E28.24794
G1 X89.993 Y48.722 E28.26512
G1 X90.168 Y48.379 E28.28231
G1 X90.225 Y48.018 E28.29869
G1 X90.225 Y47.225 E28.33415
G1 X101.907 Y47.225 E28.85667
G1 X102.775 Y48.093 E28.91159
G1 X102.775 Y101.907 E31.31867
G1 X101.907 Y102.775 E31.37359
G1 X90.285 Y102.775 E31.89343
G1 X90.417 Y102.424 F6000.000
G1 E29.89343 F1200.00000
G92 E0
G1 Z0.800 F6000.000
G1 X101.114 Y101.932 F6000.000
G1 Z0.300 F6000.000
G1 E2.00000 F1200.00000
G1 F1800
G1 X101.932 Y101.114 E2.05188
G1 X101.932 Y100.567 E2.07641
G1 X100.567 Y101.932 E2.16297
G1 X100.020 Y101.932 E2.18750
G1 X101.932 Y100.020 E2.30876
G1 X101.932 Y99.473 E2.33329
G1 X99.473 Y101.932 E2.48923
G1 X98.926 Y101.932 E2.51376
G1 X101.932 Y98.926 E2.70440
G1 X101.932 Y98.380 E2.72892
G1 X98.380 Y101.932 E2.95425
G1 X97.833 Y101.932 E2.97878
G1 X101.932 Y97.833 E3.23879
G1 X101.932 Y97.286 E3.26332
G1 X97.286 Y101.932 E3.55802
G1 X96.739 Y101.932 E3.58255
G1 X101.932 Y96.739 E3.91194
G1 X101.932 Y96.192 E3.93647
G1 X96.192 Y101.932 E4.30055
G1 X95.645 Y101.932 E4.32508
G1 X101.932 Y95.645 E4.72385
G1 X101.932 Y95.098 E4.74838
G1 X95.098 Y101.932 E5.18184
G1 X94.552 Y101.932 E5.20637
G1 X101.932 Y94.552 E5.67451
G1 X101.932 Y94.005 E5.69904
G1 X94.005 Y101.932 E6.20188
G1 X93.458 Y101.932 E6.22641
G1 X101.932 Y93.458 E6.76393
G1 X101.932 Y92.911 E6.78846
G1 X92.911 Y101.932 E7.36068
G1 X92.364 Y101.932 E7.38521
G1 X101.932 Y92.364 E7.99211
G1 X101.932 Y91.817 E8.01664
G1 X91.817 Y101.932 E8.65824
G1 X91.270 Y101.932 E8.68276
G1 X101.932 Y91.270 E9.35905
G1 X101.932 Y90.724 E9.38358
G1 X90.984 Y101.671 E10.07804
G1 X90.968 Y101.572 E10.08254
G1 X90.822 Y101.286 E10.09695
G1 X101.932 Y90.177 E10.80165
G1 X101.932 Y89.630 E10.82618
G1 X90.638 Y100.924 E11.54260
G1 X90.369 Y100.645 E11.55995
G1 X101.932 Y89.083 E12.29339
G1 X101.932 Y88.536 E12.31792
G1 X90.096 Y100.372 E13.06872
G1 X89.733 Y100.188 E13.08696
G1 X101.932 Y87.989 E13.86074
G1 X101.932 Y87.442 E13.88527
G1 X89.354 Y100.020 E14.68312
G1 X88.882 Y99.945 E14.70456
G1 X101.932 Y86.895 E15.53236
G1 X101.932 Y86.349 E15.55689
G1 X88.349 Y99.932 E16.41851
G1 X87.802 Y99.932 E16.44304
G1 X101.932 Y85.802 E17.33935
G1 X101.932 Y85.255 E17.36388
G1 X87.255 Y99.932 E18.29488
G1 X86.708 Y99.932 E18.31941
G1 X101.932 Y84.708 E19.28509
G1 X101.932 Y84.161 E19.30962
G1 X86.161 Y99.932 E20.31000
G1 X85.614 Y99.932 E20.33453
G1 X101.932 Y83.614 E21.36959
G1 X101.932 Y83.067 E21.39412
G1 X85.067 Y99.932 E22.46388
G1 X84.521 Y99.932 E22.48841
G1 X101.932 Y82.521 E23.59285
G1 X101.932 Y81.974 E23.61738
G1 X83.974 Y99.932 E24.75651
G1 X83.427 Y99.932 E24.78104
G1 X101.932 Y81.427 E25.95486
G1 X101.932 Y80.880 E25.97939
G1 X82.880 Y99.932 E27.18790
G1 X82.333 Y99.932 E27.21243
G1 X101.932 Y80.333 E28.45563
G1 X101.932 Y79.786 E28.48016
G1 X81.786 Y99.932 E29.75805
G1 X81.239 Y99.932 E29.78258
G1 X101.932 Y79.239 E31.09516
G1 X101.932 Y78.693 E31.11969
G1 X80.693 Y99.932 E32.46696
G1 X80.146 Y99.932 E32.49149
G1 X101.932 Y78.146 E33.87344
G1 X101.932 Y77.599 E33.89797
G1 X79.599 Y99.932 E35.31462
G1 X79.052 Y99.932 E35.33915
G1 X101.932 Y77.052 E36.79048
G1 X101.932 Y76.505 E36.81501
G1 X78.505 Y99.932 E38.30104
G1 X77.958 Y99.932 E38.32557
G1 X101.932 Y75.958 E39.84628
G1 X101.932 Y75.411 E39.87081
G1 X77.411 Y99.932 E41.42621
G1 X76.865 Y99.932 E41.45074
G1 X101.932 Y74.865 E43.04083
G1 X101.932 Y74.318 E43.06536
G1 X76.318 Y99.932 E44.69014
G1 X75.771 Y99.932 E44.71467
G1 X101.932 Y73.771 E46.37414
G1 X101.932 Y73.224 E46.39867
G1 X75.224 Y99.932 E48.09283
G1 X74.677 Y99.932 E48.11736
G1 X101.932 Y72.677 E49.84621
G1 X101.932 Y72.130 E49.87074
G1 X74.130 Y99.932 E51.63428
G1 X73.583 Y99.932 E51.65881
G1 X101.932 Y71.583 E53.45703
G1 X101.932 Y71.036 E53.48156
G1 X73.036 Y99.932 E55.31448
G1 X72.490 Y99.932 E55.33901
G1 X101.932 Y70.490 E57.20661
G1 X101.932 Y69.943 E57.23114
G1 X71.943 Y99.932 E59.13344
G1 X71.396 Y99.932 E59.15797
G1 X101.932 Y69.396 E61.09495
G1 X101.932 Y68.849 E61.11948
G1 X70.849 Y99.932 E63.09115
G1 X70.302 Y99.932 E63.11568
G1 X101.932 Y68.302 E65.12205
G1 X101.932 Y67.755 E65.14657
G1 X69.755 Y99.932 E67.18763
G1 X69.208 Y99.932 E67.21215
G1 X101.932 Y67.208 E69.28790
G1 X101.932 Y66.662 E69.31242
G1 X68.662 Y99.932 E71.42286
G1 X68.115 Y99.932 E71.44738
G1 X101.932 Y66.115 E73.59250
G1 X101.932 Y65.568 E73.61703
G1 X67.568 Y99.932 E75.79684
G1 X67.021 Y99.932 E75.82137
G1 X101.932 Y65.021 E78.03587
G1 X101.932 Y64.474 E78.06040
G1 X66.474 Y99.932 E80.30958
G1 X65.927 Y99.932 E80.33411
G1 X101.932 Y63.927 E82.61799
G1 X101.932 Y63.380 E82.64252
G1 X65.380 Y99.932 E84.96108
G1 X64.834 Y99.932 E84.98561
G1 X101.932 Y62.834 E87.33887
G1 X101.932 Y62.287 E87.36340
G1 X64.287 Y99.932 E89.75134
G1 X63.740 Y99.932 E89.77587
G1 X101.932 Y61.740 E92.19850
G1 X101.932 Y61.193 E92.22303
G1 X63.193 Y99.932 E94.68035
G1 X62.646 Y99.932 E94.70488
G1 X101.932 Y60.646 E97.19689
G1 X101.932 Y60.099 E97.22142
G1 X62.099 Y99.932 E99.74812
G1 X61.552 Y99.932 E99.77265
G1 X101.932 Y59.552 E102.33404
G1 X101.932 Y59.006 E102.35857
G1 X61.006 Y99.932 E104.95465
G1 X60.578 Y99.932 E104.97383
G1 X60.436 Y99.954 E104.98026
G1 X101.932 Y58.459 E107.61245
G1 X101.932 Y57.912 E107.63698
G1 X59.673 Y100.171 E110.31758
G1 X59.276 Y100.373 E110.33756
G1 X58.746 Y100.903 E110.37122
G1 X58.543 Y101.300 E110.39119
G1 X57.912 Y101.932 E110.43126
G1 X57.365 Y101.932 E110.45578
G1 X101.932 Y57.365 E113.28280
G1 X101.932 Y56.818 E113.30733
G1 X56.818 Y101.932 E116.16903
G1 X56.271 Y101.932 E116.19356
G1 X101.932 Y56.271 E119.08995
G1 X101.932 Y55.724 E119.11448
G1 X55.724 Y101.932 E122.04556
G1 X55.177 Y101.932 E122.07009
G1 X101.932 Y55.177 E125.03586
G1 X101.932 Y54.631 E125.06038
G1 X54.631 Y101.932 E128.06084
G1 X54.084 Y101.932 E128.08537
G1 X101.932 Y54.084 E131.12052
G1 X101.932 Y53.537 E131.14505
G1 X53.537 Y101.932 E134.21489
G1 X52.990 Y101.932 E134.23941
G1 X101.932 Y52.990 E137.34394
G1 X101.932 Y52.443 E137.36847
G1 X52.443 Y101.932 E140.50768
G1 X51.896 Y101.932 E140.53221
G1 X101.932 Y51.896 E143.70612
G1 X101.932 Y51.349 E143.73065
G1 X51.349 Y101.932 E146.93924
G1 X50.803 Y101.932 E146.96377
G1 X101.932 Y50.803 E150.20705
G1 X101.932 Y50.256 E150.23158
G1 X50.256 Y101.932 E153.50955
G1 X49.709 Y101.932 E153.53408
G1 X101.932 Y49.709 E156.84674
G1 X101.932 Y49.162 E156.87127
G1 X49.162 Y101.932 E160.21862
G1 X48.615 Y101.932 E160.24315
G1 X101.932 Y48.615 E163.62519
G1 X101.932 Y48.259 E163.64117
G1 X101.836 Y48.164 E163.64722
G1 X48.164 Y101.836 E167.05186
G1 X48.068 Y101.741 E167.05790
G1 X48.068 Y101.385 E167.07388
G1 X101.385 Y48.068 E170.45593
G1 X100.838 Y48.068 E170.48045
G1 X48.068 Y100.838 E173.82781
G1 X48.068 Y100.291 E173.85233
G1 X100.291 Y48.068 E177.16500
G1 X99.744 Y48.068 E177.18952
G1 X48.068 Y99.744 E180.46750
G1 X48.068 Y99.197 E180.49203
G1 X99.197 Y48.068 E183.73531
G1 X98.651 Y48.068 E183.75984
G1 X48.068 Y98.651 E186.96843
G1 X48.068 Y98.104 E186.99296
G1 X98.104 Y48.068 E190.16687
G1 X97.557 Y48.068 E190.19140
G1 X48.068 Y97.557 E193.33061
G1 X48.068 Y97.010 E193.35514
G1 X97.010 Y48.068 E196.45967
G1 X96.463 Y48.068 E196.48420
G1 X48.068 Y96.463 E199.55403
G1 X48.068 Y95.916 E199.57856
G1 X95.916 Y48.068 E202.61371
G1 X95.369 Y48.068 E202.63824
G1 X48.068 Y95.369 E205.63870
G1 X48.068 Y94.823 E205.66323
G1 X94.823 Y48.068 E208.62900
G1 X94.276 Y48.068 E208.65353
G1 X48.068 Y94.276 E211.58461
G1 X48.068 Y93.729 E211.60914
G1 X93.729 Y48.068 E214.50553
G1 X93.182 Y48.068 E214.53006
G1 X48.068 Y93.182 E217.39176
G1 X48.068 Y92.635 E217.41629
G1 X92.635 Y48.068 E220.24330
G1 X92.088 Y48.068 E220.26783
G1 X90.829 Y49.327 E220.34768
G1 X90.968 Y49.055 E220.36138
G1 X91.025 Y48.695 E220.37771
G1 X91.461 Y48.695 E220.39727
G1 E218.39727 F1200.00000
G92 E0
G1 Z0.800 F6000.000
G1 X48.259 Y48.695 F6000.000
G1 Z0.300 F6000.000
G1 E2.00000 F1200.00000
G1 F1800
G1 X48.068 Y48.886 E2.01210
G1 X48.886 Y48.068 E2.06397
G1 X49.433 Y48.068 E2.08850
G1 X48.068 Y49.433 E2.17507
G1 X48.068 Y49.980 E2.19960
G1 X49.980 Y48.068 E2.32086
G1 X50.527 Y48.068 E2.34539
G1 X48.068 Y50.527 E2.50133
G1 X48.068 Y51.074 E2.52586
G1 X51.074 Y48.068 E2.71650
G1 X51.620 Y48.068 E2.74103
G1 X48.068 Y51.620 E2.96635
G1 X48.068 Y52.167 E2.99088
G1 X52.167 Y48.068 E3.25089
G1 X52.714 Y48.068 E3.27542
G1 X48.068 Y52.714 E3.57012
G1 X48.068 Y53.261 E3.59465
G1 X53.261 Y48.068 E3.92404
G1 X53.808 Y48.068 E3.94857
G1 X48.068 Y53.808 E4.31266
G1 X48.068 Y54.355 E4.33718
G1 X54.355 Y48.068 E4.73595
G1 X54.902 Y48.068 E4.76048
G1 X48.068 Y54.902 E5.19394
G1 X48.068 Y55.448 E5.21847
G1 X55.448 Y48.068 E5.68662
G1 X55.995 Y48.068 E5.71115
G1 X48.068 Y55.995 E6.21399
G1 X48.068 Y56.542 E6.23852
G1 X56.542 Y48.068 E6.77604
G1 X57.089 Y48.068 E6.80057
G1 X48.068 Y57.089 E7.37279
G1 X48.068 Y57.636 E7.39732
G1 X57.636 Y48.068 E8.00422
G1 X58.183 Y48.068 E8.02875
G1 X48.068 Y58.183 E8.67035
G1 X48.068 Y58.730 E8.69488
G1 X58.730 Y48.068 E9.37116
G1 X58.975 Y48.068 E9.38216
G1 X59.016 Y48.329 E9.39399
G1 X48.068 Y59.276 E10.08845
G1 X48.068 Y59.823 E10.11297
G1 X59.178 Y48.714 E10.81768
G1 X59.362 Y49.076 E10.83592
G1 X48.068 Y60.370 E11.55234
G1 X48.068 Y60.917 E11.57686
G1 X59.631 Y49.355 E12.31031
G1 X59.904 Y49.628 E12.32765
G1 X48.068 Y61.464 E13.07846
G1 X48.068 Y62.011 E13.10299
G1 X60.267 Y49.812 E13.87677
G1 X60.572 Y49.968 E13.89215
G1 X60.646 Y49.980 E13.89551
G1 X48.068 Y62.558 E14.69336
G1 X48.068 Y63.105 E14.71789
G1 X61.118 Y50.055 E15.54569
G1 X61.651 Y50.068 E15.56961
G1 X48.068 Y63.651 E16.43123
G1 X48.068 Y64.198 E16.45576
G1 X62.198 Y50.068 E17.35207
G1 X62.745 Y50.068 E17.37660
G1 X48.068 Y64.745 E18.30760
G1 X48.068 Y65.292 E18.33213
G1 X63.292 Y50.068 E19.29782
G1 X63.839 Y50.068 E19.32234
G1 X48.068 Y65.839 E20.32272
G1 X48.068 Y66.386 E20.34725
G1 X64.386 Y50.068 E21.38232
G1 X64.933 Y50.068 E21.40685
G1 X48.068 Y66.933 E22.47660
G1 X48.068 Y67.479 E22.50113
G1 X65.479 Y50.068 E23.60557
G1 X66.026 Y50.068 E23.63010
G1 X48.068 Y68.026 E24.76924
G1 X48.068 Y68.573 E24.79377
G1 X66.573 Y50.068 E25.96759
G1 X67.120 Y50.068 E25.99212
G1 X48.068 Y69.120 E27.20063
G1 X48.068 Y69.667 E27.22516
G1 X67.667 Y50.068 E28.46836
G1 X68.214 Y50.068 E28.49289
G1 X48.068 Y70.214 E29.77078
G1 X48.068 Y70.761 E29.79531
G1 X68.761 Y50.068 E31.10789
G1 X69.307 Y50.068 E31.13242
G1 X48.068 Y71.307 E32.47969
G1 X48.068 Y71.854 E32.50422
G1 X69.854 Y50.068 E33.88617
G1 X70.401 Y50.068 E33.91070
G1 X48.068 Y72.401 E35.32735
G1 X48.068 Y72.948 E35.35188
G1 X70.948 Y50.068 E36.80322
G1 X71.495 Y50.068 E36.82774
G1 X48.068 Y73.495 E38.31377
G1 X48.068 Y74.042 E38.33830
G1 X72.042 Y50.068 E39.85901
G1 X72.589 Y50.068 E39.88354
G1 X48.068 Y74.589 E41.43895
G1 X48.068 Y75.135 E41.46348
G1 X73.135 Y50.068 E43.05357
G1 X73.682 Y50.068 E43.07810
G1 X48.068 Y75.682 E44.70288
G1 X48.068 Y76.229 E44.72741
G1 X74.229 Y50.068 E46.38688
