; generated by Slic3r 1.3.0 on 2021-02-04 at 17:20:00

; external perimeters extrusion width = 0.44mm (2.86mm^3/s)
; perimeters extrusion width = 0.56mm (4.14mm^3/s)
; infill extrusion width = 0.50mm (3.66mm^3/s)
; solid infill extrusion width = 0.56mm (3.10mm^3/s)
; top infill extrusion width = 0.45mm (2.44mm^3/s)

M107
;D3D:START:START
T0
M104 S215 T0

G21
G90
M107
T0
G28
G29
M109 T0 S215 T0
G0 F3000
M107
T0
G92 E0
G0 X0 Y149 Z0.1 F3600
G1 Y49 E6.5 F1200
G0 Z1
G92 E0
; Filament gcode

G21 ; set units to millimeters
G90 ; use absolute coordinates
M82 ; use absolute distances for extrusion
G92 E0
G1 Z0.300 F6000.000
G1 E-2.00000 F1200.00000
G92 E0
G1 Z0.800 F6000.000
G1 X36.528 Y41.187 F6000.000
G1 Z0.300 F6000.000
G1 E2.00000 F1200.00000
G1 F1800
G1 X38.693 Y40.356 E2.10372
G1 X40.000 Y40.229 E2.16245
G1 X110.000 Y40.229 E5.29353
G1 X112.285 Y40.626 E5.39726
G1 X114.301 Y41.770 E5.50098
G1 X115.813 Y43.528 E5.60470
G1 X116.644 Y45.693 E5.70842
G1 X116.771 Y47.000 E5.76714
G1 X116.771 Y103.000 E8.27201
G1 X116.374 Y105.285 E8.37574
G1 X115.230 Y107.301 E8.47946
G1 X113.472 Y108.813 E8.58318
G1 X111.307 Y109.644 E8.68690
G1 X110.000 Y109.771 E8.74562
G1 X40.000 Y109.771 E11.87671
G1 X37.715 Y109.374 E11.98043
G1 X35.699 Y108.230 E12.08415
G1 X34.187 Y106.472 E12.18788
G1 X33.356 Y104.307 E12.29160
G1 X33.229 Y103.000 E12.35032
G1 X33.229 Y47.000 E14.85519
G1 X33.626 Y44.715 E14.95891
G1 X34.770 Y42.699 E15.06263
G1 X36.483 Y41.226 E15.16367
G1 X36.896 Y41.419 F6000.000
G1 F1800
G1 X40.000 Y40.614 E15.30709
G1 X110.000 Y40.614 E18.43818
G1 X112.216 Y41.011 E18.53888
G1 X114.157 Y42.153 E18.63958
G1 X115.581 Y43.896 E18.74028
G1 X116.386 Y47.000 E18.88370
G1 X116.386 Y103.000 E21.38857
G1 X115.989 Y105.216 E21.48928
G1 X114.847 Y107.157 E21.58998
G1 X113.104 Y108.581 E21.69068
G1 X110.000 Y109.386 E21.83410
G1 X40.000 Y109.386 E24.96519
G1 X37.784 Y108.989 E25.06589
G1 X35.843 Y107.847 E25.16659
G1 X34.419 Y106.104 E25.26729
G1 X33.614 Y103.000 E25.41071
G1 X33.614 Y47.000 E27.91558
G1 X34.011 Y44.784 E28.01628
G1 X35.153 Y42.843 E28.11698
G1 X36.850 Y41.457 E28.21500
G1 E26.21500 F1200.00000
G92 E0
G1 Z0.800 F6000.000
G1 X57.492 Y94.231 F6000.000
G1 Z0.300 F6000.000
G1 E2.00000 F1200.00000
G1 F1800
G1 X57.607 Y95.000 E2.03477
G1 X57.492 Y95.769 E2.06953
G1 X57.154 Y96.469 E2.10430
G1 X56.626 Y97.039 E2.13907
G1 X55.953 Y97.427 E2.17383
G1 X55.195 Y97.600 E2.20860
G1 X54.420 Y97.542 E2.24336
G1 X53.696 Y97.258 E2.27813
G1 X53.103 Y96.785 E2.31205
G1 X52.652 Y96.136 E2.34744
G1 X52.420 Y95.384 E2.38260
G1 X52.427 Y94.593 E2.41799
G1 X52.651 Y93.869 E2.45191
G1 X53.089 Y93.226 E2.48667
G1 X53.696 Y92.742 E2.52144
G1 X54.420 Y92.458 E2.55621
G1 X55.176 Y92.401 E2.59013
G1 X55.949 Y92.571 E2.62551
G1 X56.626 Y92.961 E2.66048
G1 X57.154 Y93.531 E2.69525
G1 X57.466 Y94.177 E2.72733
G1 X57.119 Y94.346 F6000.000
G1 F1800
G1 X57.218 Y95.000 E2.75689
G1 X57.119 Y95.654 E2.78646
G1 X56.832 Y96.249 E2.81603
G1 X56.383 Y96.734 E2.84560
G1 X55.810 Y97.064 E2.87516
G1 X55.166 Y97.211 E2.90473
G1 X54.507 Y97.162 E2.93430
G1 X53.891 Y96.920 E2.96386
G1 X53.388 Y96.519 E2.99266
G1 X53.003 Y95.965 E3.02285
G1 X52.806 Y95.328 E3.05266
G1 X52.812 Y94.653 E3.08284
G1 X53.002 Y94.038 E3.11164
G1 X53.374 Y93.492 E3.14121
G1 X53.891 Y93.080 E3.17077
G1 X54.507 Y92.838 E3.20034
G1 X55.149 Y92.790 E3.22914
G1 X55.808 Y92.934 E3.25933
G1 X56.383 Y93.266 E3.28901
G1 X56.832 Y93.751 E3.31858
G1 X57.093 Y94.292 E3.34546
G1 X56.746 Y94.461 F6000.000
G1 F1800
G1 X56.828 Y95.000 E3.36983
G1 X56.746 Y95.539 E3.39420
G1 X56.510 Y96.029 E3.41856
G1 X56.139 Y96.429 E3.44293
G1 X55.668 Y96.701 E3.46730
G1 X55.137 Y96.822 E3.49167
G1 X54.593 Y96.782 E3.51603
G1 X54.086 Y96.583 E3.54040
G1 X53.672 Y96.253 E3.56408
G1 X53.354 Y95.794 E3.58906
G1 X53.193 Y95.271 E3.61352
G1 X53.197 Y94.713 E3.63850
G1 X53.353 Y94.207 E3.66218
G1 X53.660 Y93.757 E3.68655
G1 X54.086 Y93.417 E3.71091
G1 X54.593 Y93.218 E3.73528
G1 X55.121 Y93.179 E3.75896
G1 X55.667 Y93.298 E3.78394
G1 X56.139 Y93.571 E3.80835
G1 X56.510 Y93.971 E3.83272
G1 X56.720 Y94.407 E3.85441
G1 X57.136 Y94.550 F6000.000
G1 E1.85441 F1200.00000
G92 E0
G1 Z0.800 F6000.000
G1 X55.195 Y57.600 F6000.000
G1 Z0.300 F6000.000
G1 E2.00000 F1200.00000
G1 F1800
G1 X54.420 Y57.542 E2.03477
G1 X53.696 Y57.258 E2.06953
G1 X53.089 Y56.774 E2.10430
G1 X52.651 Y56.131 E2.13907
G1 X52.420 Y55.384 E2.17403
G1 X52.427 Y54.593 E2.20941
G1 X52.651 Y53.869 E2.24334
G1 X53.089 Y53.226 E2.27810
G1 X53.696 Y52.742 E2.31287
G1 X54.420 Y52.458 E2.34764
G1 X55.176 Y52.401 E2.38156
G1 X55.949 Y52.571 E2.41694
G1 X56.626 Y52.961 E2.45191
G1 X57.154 Y53.531 E2.48667
G1 X57.492 Y54.231 E2.52144
G1 X57.607 Y55.000 E2.55621
G1 X57.492 Y55.769 E2.59097
G1 X57.154 Y56.469 E2.62574
G1 X56.626 Y57.039 E2.66051
G1 X55.953 Y57.427 E2.69527
G1 X55.253 Y57.587 E2.72736
G1 X55.166 Y57.211 F6000.000
G1 F1800
G1 X54.507 Y57.162 E2.75692
G1 X53.891 Y56.920 E2.78649
G1 X53.374 Y56.508 E2.81606
G1 X53.002 Y55.962 E2.84562
G1 X52.806 Y55.328 E2.87531
G1 X52.812 Y54.653 E2.90550
G1 X53.002 Y54.038 E2.93429
G1 X53.374 Y53.492 E2.96386
G1 X53.891 Y53.080 E2.99343
G1 X54.507 Y52.838 E3.02299
G1 X55.149 Y52.790 E3.05179
G1 X55.808 Y52.934 E3.08198
G1 X56.383 Y53.266 E3.11167
G1 X56.832 Y53.751 E3.14123
G1 X57.119 Y54.346 E3.17080
G1 X57.218 Y55.000 E3.20037
G1 X57.119 Y55.654 E3.22993
G1 X56.832 Y56.249 E3.25950
G1 X56.383 Y56.734 E3.28907
G1 X55.810 Y57.064 E3.31863
G1 X55.224 Y57.198 E3.34552
G1 X55.137 Y56.822 F6000.000
G1 F1800
G1 X54.593 Y56.782 E3.36989
G1 X54.086 Y56.583 E3.39425
G1 X53.660 Y56.243 E3.41862
G1 X53.353 Y55.793 E3.44299
G1 X53.193 Y55.271 E3.46740
G1 X53.197 Y54.713 E3.49238
G1 X53.353 Y54.207 E3.51606
G1 X53.660 Y53.757 E3.54043
G1 X54.086 Y53.417 E3.56479
G1 X54.593 Y53.218 E3.58916
G1 X55.121 Y53.179 E3.61284
G1 X55.667 Y53.298 E3.63782
G1 X56.139 Y53.571 E3.66223
G1 X56.510 Y53.971 E3.68660
G1 X56.746 Y54.461 E3.71097
G1 X56.828 Y55.000 E3.73534
G1 X56.746 Y55.539 E3.75970
G1 X56.510 Y56.029 E3.78407
G1 X56.139 Y56.429 E3.80844
G1 X55.668 Y56.701 E3.83280
G1 X55.195 Y56.809 E3.85449
G1 X54.963 Y57.183 F6000.000
G1 E1.85449 F1200.00000
G92 E0
G1 Z0.800 F6000.000
G1 X92.420 Y55.384 F6000.000
G1 Z0.300 F6000.000
G1 E2.00000 F1200.00000
G1 F1800
G1 X92.427 Y54.593 E2.03539
G1 X92.651 Y53.869 E2.06931
G1 X93.089 Y53.226 E2.10407
G1 X93.696 Y52.742 E2.13884
G1 X94.420 Y52.458 E2.17361
G1 X95.176 Y52.401 E2.20753
G1 X95.949 Y52.571 E2.24291
G1 X96.630 Y52.964 E2.27808
G1 X97.163 Y53.548 E2.31346
G1 X97.492 Y54.231 E2.34738
G1 X97.607 Y55.000 E2.38215
G1 X97.492 Y55.769 E2.41692
G1 X97.154 Y56.469 E2.45168
G1 X96.626 Y57.039 E2.48645
G1 X95.953 Y57.427 E2.52122
G1 X95.195 Y57.600 E2.55598
G1 X94.420 Y57.542 E2.59075
G1 X93.714 Y57.265 E2.62467
G1 X93.091 Y56.777 E2.66006
G1 X92.651 Y56.131 E2.69502
G1 X92.438 Y55.442 E2.72730
G1 X92.806 Y55.328 F6000.000
G1 F1800
G1 X92.812 Y54.653 E2.75749
G1 X93.002 Y54.038 E2.78629
G1 X93.374 Y53.492 E2.81585
G1 X93.891 Y53.080 E2.84542
G1 X94.507 Y52.838 E2.87499
G1 X95.149 Y52.790 E2.90378
G1 X95.808 Y52.934 E2.93397
G1 X96.385 Y53.268 E2.96378
G1 X96.840 Y53.766 E2.99396
G1 X97.119 Y54.346 E3.02276
G1 X97.218 Y55.000 E3.05233
G1 X97.119 Y55.654 E3.08190
G1 X96.832 Y56.249 E3.11146
G1 X96.383 Y56.734 E3.14103
G1 X95.810 Y57.064 E3.17060
G1 X95.166 Y57.211 E3.20016
G1 X94.507 Y57.162 E3.22973
G1 X93.907 Y56.927 E3.25853
G1 X93.376 Y56.511 E3.28872
G1 X93.002 Y55.962 E3.31840
G1 X92.824 Y55.385 E3.34541
G1 X93.193 Y55.271 F6000.000
G1 F1800
G1 X93.197 Y54.713 E3.37039
G1 X93.353 Y54.207 E3.39407
G1 X93.660 Y53.757 E3.41844
G1 X94.086 Y53.417 E3.44280
G1 X94.593 Y53.218 E3.46717
G1 X95.121 Y53.179 E3.49085
G1 X95.667 Y53.298 E3.51583
G1 X96.140 Y53.572 E3.54029
G1 X96.517 Y53.984 E3.56528
G1 X96.746 Y54.461 E3.58895
G1 X96.828 Y55.000 E3.61332
G1 X96.746 Y55.539 E3.63769
G1 X96.510 Y56.029 E3.66205
G1 X96.139 Y56.429 E3.68642
G1 X95.668 Y56.701 E3.71079
G1 X95.137 Y56.822 E3.73515
G1 X94.593 Y56.782 E3.75952
G1 X94.101 Y56.588 E3.78320
G1 X93.661 Y56.244 E3.80818
G1 X93.353 Y55.793 E3.83259
G1 X93.210 Y55.329 E3.85432
G1 X92.821 Y55.123 F6000.000
G1 E1.85432 F1200.00000
G92 E0
G1 Z0.800 F6000.000
G1 X95.176 Y92.401 F6000.000
G1 Z0.300 F6000.000
G1 E2.00000 F1200.00000
G1 F1800
G1 X95.949 Y92.571 E2.03539
G1 X96.630 Y92.964 E2.07055
G1 X97.163 Y93.548 E2.10593
G1 X97.492 Y94.231 E2.13985
G1 X97.607 Y95.000 E2.17462
G1 X97.491 Y95.773 E2.20959
G1 X97.142 Y96.483 E2.24497
G1 X96.626 Y97.039 E2.27889
G1 X95.953 Y97.427 E2.31366
G1 X95.195 Y97.600 E2.34843
G1 X94.420 Y97.542 E2.38319
G1 X93.696 Y97.258 E2.41796
G1 X93.103 Y96.785 E2.45188
G1 X92.652 Y96.136 E2.48727
G1 X92.420 Y95.384 E2.52243
G1 X92.427 Y94.593 E2.55781
G1 X92.651 Y93.869 E2.59174
G1 X93.089 Y93.226 E2.62650
G1 X93.696 Y92.742 E2.66127
G1 X94.420 Y92.458 E2.69604
G1 X95.116 Y92.406 E2.72727
G1 X95.149 Y92.790 F6000.000
G1 F1800
G1 X95.808 Y92.934 E2.75746
G1 X96.385 Y93.268 E2.78727
G1 X96.840 Y93.766 E2.81745
G1 X97.119 Y94.346 E2.84625
G1 X97.218 Y95.000 E2.87582
G1 X97.119 Y95.656 E2.90551
G1 X96.821 Y96.262 E2.93569
G1 X96.383 Y96.734 E2.96449
G1 X95.810 Y97.064 E2.99406
G1 X95.166 Y97.211 E3.02363
G1 X94.507 Y97.162 E3.05319
G1 X93.891 Y96.920 E3.08276
G1 X93.388 Y96.519 E3.11156
G1 X93.003 Y95.965 E3.14174
G1 X92.806 Y95.328 E3.17155
G1 X92.812 Y94.653 E3.20174
G1 X93.002 Y94.038 E3.23054
G1 X93.374 Y93.492 E3.26010
G1 X93.891 Y93.080 E3.28967
G1 X94.507 Y92.838 E3.31924
G1 X95.089 Y92.794 E3.34535
G1 X95.121 Y93.179 F6000.000
G1 F1800
G1 X95.667 Y93.298 E3.37034
G1 X96.140 Y93.572 E3.39480
G1 X96.517 Y93.984 E3.41978
G1 X96.746 Y94.461 E3.44346
G1 X96.828 Y95.000 E3.46782
G1 X96.746 Y95.540 E3.49224
G1 X96.499 Y96.041 E3.51722
G1 X96.139 Y96.429 E3.54090
G1 X95.668 Y96.701 E3.56527
G1 X95.137 Y96.822 E3.58963
G1 X94.593 Y96.782 E3.61400
G1 X94.086 Y96.583 E3.63837
G1 X93.672 Y96.253 E3.66204
G1 X93.354 Y95.794 E3.68703
G1 X93.193 Y95.271 E3.71148
G1 X93.197 Y94.713 E3.73647
G1 X93.353 Y94.207 E3.76015
G1 X93.660 Y93.757 E3.78451
G1 X94.086 Y93.417 E3.80888
G1 X94.593 Y93.218 E3.83325
G1 X95.061 Y93.183 E3.85424
G1 X95.344 Y92.847 F6000.000
G1 E1.85424 F1200.00000
G92 E0
G1 Z0.800 F6000.000
G1 X109.004 Y102.004 F6000.000
G1 Z0.300 F6000.000
G1 E2.00000 F1200.00000
G1 F1800
G1 X40.996 Y102.004 E5.04196
G1 X40.996 Y47.996 E7.45771
G1 X109.004 Y47.996 E10.49968
G1 X109.004 Y101.944 E12.91274
G1 X109.389 Y102.389 F6000.000
G1 F1800
G1 X40.611 Y102.389 E15.98920
G1 X40.611 Y47.611 E18.43945
G1 X109.389 Y47.611 E21.51591
G1 X109.389 Y102.329 E23.96347
G1 X109.775 Y102.775 F6000.000
G1 F1800
G1 X40.225 Y102.775 E27.07443
G1 X40.225 Y47.225 E29.55917
G1 X109.775 Y47.225 E32.67013
G1 X109.775 Y102.715 E35.15219
G1 X109.385 Y102.686 F6000.000
G1 X108.304 Y101.932 F6000.000
G1 F1800
G1 X108.932 Y101.304 E35.19203
G1 X108.932 Y100.757 E35.21663
G1 X107.757 Y101.932 E35.29125
G1 X107.209 Y101.932 E35.31585
G1 X108.932 Y100.209 E35.42526
G1 X108.932 Y99.662 E35.44985
G1 X106.662 Y101.932 E35.59405
G1 X106.114 Y101.932 E35.61864
G1 X108.932 Y99.114 E35.79762
G1 X108.932 Y98.566 E35.82221
G1 X105.566 Y101.932 E36.03597
G1 X105.019 Y101.932 E36.06057
G1 X108.932 Y98.019 E36.30911
G1 X108.932 Y97.471 E36.33371
G1 X104.471 Y101.932 E36.61703
G1 X103.924 Y101.932 E36.64163
G1 X108.932 Y96.924 E36.95973
G1 X108.932 Y96.376 E36.98433
G1 X103.376 Y101.932 E37.33722
G1 X102.828 Y101.932 E37.36182
G1 X108.932 Y95.828 E37.74949
G1 X108.932 Y95.281 E37.77409
G1 X102.281 Y101.932 E38.19654
G1 X101.733 Y101.932 E38.22114
G1 X108.932 Y94.733 E38.67838
G1 X108.932 Y94.186 E38.70297
G1 X101.186 Y101.932 E39.19499
G1 X100.638 Y101.932 E39.21959
G1 X108.932 Y93.638 E39.74640
G1 X108.932 Y93.090 E39.77099
G1 X100.090 Y101.932 E40.33258
G1 X99.543 Y101.932 E40.35717
G1 X108.932 Y92.543 E40.95355
G1 X108.932 Y91.995 E40.97814
G1 X98.995 Y101.932 E41.60929
G1 X98.448 Y101.932 E41.63389
G1 X108.932 Y91.448 E42.29983
G1 X108.932 Y90.900 E42.32442
G1 X97.900 Y101.932 E43.02514
G1 X97.352 Y101.932 E43.04974
G1 X108.932 Y90.352 E43.78524
G1 X108.932 Y89.805 E43.80984
G1 X96.805 Y101.932 E44.58012
G1 X96.257 Y101.932 E44.60472
G1 X108.932 Y89.257 E45.40979
G1 X108.932 Y88.710 E45.43438
G1 X95.710 Y101.932 E46.27423
G1 X95.162 Y101.932 E46.29883
G1 X108.932 Y88.162 E47.17346
G1 X108.932 Y87.614 E47.19806
G1 X94.614 Y101.932 E48.10748
G1 X94.067 Y101.932 E48.13207
G1 X108.932 Y87.067 E49.07627
G1 X108.932 Y86.519 E49.10087
G1 X93.519 Y101.932 E50.07985
G1 X92.972 Y101.932 E50.10444
G1 X108.932 Y85.972 E51.11821
G1 X108.932 Y85.424 E51.14281
G1 X92.424 Y101.932 E52.19135
G1 X91.876 Y101.932 E52.21595
G1 X96.309 Y97.499 E52.49748
G1 X95.599 Y97.661 E52.53017
G1 X91.329 Y101.932 E52.80142
G1 X90.781 Y101.932 E52.82601
G1 X95.072 Y97.641 E53.09858
G1 X94.647 Y97.609 E53.11775
G1 X94.582 Y97.583 E53.12087
G1 X90.234 Y101.932 E53.39707
G1 X89.686 Y101.932 E53.42167
G1 X94.189 Y97.429 E53.70768
G1 X93.800 Y97.270 E53.72654
G1 X89.138 Y101.932 E54.02263
G1 X88.591 Y101.932 E54.04722
G1 X93.495 Y97.027 E54.35874
G1 X93.191 Y96.784 E54.37624
G1 X88.043 Y101.932 E54.70320
G1 X87.496 Y101.932 E54.72779
G1 X92.951 Y96.477 E55.07430
G1 X92.726 Y96.153 E55.09197
G1 X86.948 Y101.932 E55.45900
G1 X86.400 Y101.932 E55.48359
G1 X92.550 Y95.782 E55.87420
G1 X92.421 Y95.364 E55.89387
G1 X85.853 Y101.932 E56.31105
G1 X85.305 Y101.932 E56.33565
G1 X92.350 Y94.887 E56.78312
G1 X92.355 Y94.335 E56.80793
G1 X84.758 Y101.932 E57.29048
G1 X84.210 Y101.932 E57.31508
G1 X92.549 Y93.593 E57.84477
G1 E55.84477 F1200.00000
G92 E0
G1 Z0.800 F6000.000
G1 X97.496 Y96.312 F6000.000
G1 Z0.300 F6000.000
G1 E2.00000 F1200.00000
G1 F1800
G1 X108.932 Y84.876 E2.72637
G1 X108.932 Y84.329 E2.75097
G1 X97.637 Y95.623 E3.46838
G1 X97.684 Y95.314 E3.48246
G1 X97.647 Y95.066 E3.49368
G1 X108.932 Y83.781 E4.21050
G1 X108.932 Y83.234 E4.23510
G1 X97.575 Y94.590 E4.95647
G1 X97.551 Y94.430 E4.96376
G1 X97.433 Y94.185 E4.97597
G1 X108.932 Y82.686 E5.70638
G1 X108.932 Y82.138 E5.73097
G1 X97.255 Y93.815 E6.47268
G1 X97.172 Y93.644 E6.48125
G1 X97.032 Y93.490 E6.49056
G1 X108.932 Y81.591 E7.24641
G1 X108.932 Y81.043 E7.27100
G1 X96.771 Y93.204 E8.04343
G1 X96.561 Y92.973 E8.05746
G1 X96.493 Y92.934 E8.06096
G1 X108.932 Y80.496 E8.85104
G1 X108.932 Y79.948 E8.87564
G1 X96.146 Y92.734 E9.68777
G1 X95.799 Y92.533 E9.70578
G1 X108.932 Y79.400 E10.53996
G1 X108.932 Y78.853 E10.56456
G1 X95.356 Y92.428 E11.42685
G1 X94.907 Y92.330 E11.44750
G1 X108.932 Y78.305 E12.33833
G1 X108.932 Y77.758 E12.36292
G1 X94.321 Y92.369 E13.29100
G1 X94.019 Y92.391 E13.30457
G1 X93.577 Y92.565 E13.32593
G1 X108.932 Y77.210 E14.30126
G1 X108.932 Y76.662 E14.32585
G1 X83.662 Y101.932 E15.93093
G1 X83.115 Y101.932 E15.95552
G1 X108.932 Y76.115 E17.59538
G1 X108.932 Y75.567 E17.61998
G1 X82.567 Y101.932 E19.29462
G1 X82.020 Y101.932 E19.31921
G1 X108.932 Y75.020 E21.02864
G1 X108.932 Y74.472 E21.05323
G1 X81.472 Y101.932 E22.79744
G1 X80.924 Y101.932 E22.82204
G1 X108.932 Y73.924 E24.60103
G1 X108.932 Y73.377 E24.62562
G1 X80.377 Y101.932 E26.43940
G1 X79.829 Y101.932 E26.46399
G1 X108.932 Y72.829 E28.31255
G1 X108.932 Y72.282 E28.33714
G1 X79.282 Y101.932 E30.22048
G1 X78.734 Y101.932 E30.24508
G1 X108.932 Y71.734 E32.16320
G1 X108.932 Y71.186 E32.18779
G1 X78.186 Y101.932 E34.14070
G1 X77.639 Y101.932 E34.16529
G1 X108.932 Y70.639 E36.15298
G1 X108.932 Y70.091 E36.17758
G1 X77.091 Y101.932 E38.20005
G1 X76.544 Y101.932 E38.22464
G1 X108.932 Y69.544 E40.28189
G1 X108.932 Y68.996 E40.30649
G1 X75.996 Y101.932 E42.39853
G1 X75.448 Y101.932 E42.42312
G1 X108.932 Y68.448 E44.54994
G1 X108.932 Y67.901 E44.57454
G1 X74.901 Y101.932 E46.73614
G1 X74.353 Y101.932 E46.76073
G1 X108.932 Y67.353 E48.95712
G1 X108.932 Y66.806 E48.98171
G1 X73.806 Y101.932 E51.21288
G1 X73.258 Y101.932 E51.23748
G1 X108.932 Y66.258 E53.50343
G1 X108.932 Y65.710 E53.52802
G1 X72.710 Y101.932 E55.82876
G1 X72.163 Y101.932 E55.85335
G1 X108.932 Y65.163 E58.18887
G1 X108.932 Y64.615 E58.21346
G1 X71.615 Y101.932 E60.58376
G1 X71.068 Y101.932 E60.60836
