; generated by Slic3r 1.3.0 on 2021-02-04 at 17:19:59

; external perimeters extrusion width = 0.44mm (2.86mm^3/s)
; perimeters extrusion width = 0.56mm (4.14mm^3/s)
; infill extrusion width = 0.50mm (3.66mm^3/s)
; solid infill extrusion width = 0.56mm (3.10mm^3/s)
; top infill extrusion width = 0.45mm (2.44mm^3/s)

M107
;D3D:START:START
T0
M104 S215 T0

G21
G90
M107
T0
G28
G29
M109 T0 S215 T0
G0 F3000
M107
T0
G92 E0
G0 X0 Y149 Z0.1 F3600
G1 Y49 E6.5 F1200
G0 Z1
G92 E0
; Filament gcode

G21 ; set units to millimeters
G90 ; use absolute coordinates
M82 ; use absolute distances for extrusion
G92 E0
G1 Z0.300 F6000.000
G1 E-2.00000 F1200.00000
G92 E0
G1 Z0.800 F6000.000
G1 X42.862 Y42.562 F6000.000
G1 Z0.300 F6000.000
G1 E2.00000 F1200.00000
G1 F1800
G1 X44.758 Y41.227 E2.10372
G1 X47.650 Y40.579 E2.23628
G1 X102.350 Y40.579 E4.68300
G1 X104.635 Y40.976 E4.78673
G1 X107.138 Y42.562 E4.91929
G1 X107.438 Y42.862 E4.93827
G1 X108.773 Y44.758 E5.04199
G1 X109.421 Y47.650 E5.17455
G1 X109.421 Y102.350 E7.62127
G1 X109.024 Y104.635 E7.72499
G1 X107.438 Y107.138 E7.85755
G1 X107.138 Y107.438 E7.87653
G1 X105.242 Y108.773 E7.98025
G1 X102.350 Y109.421 E8.11281
G1 X47.650 Y109.421 E10.55953
G1 X45.365 Y109.024 E10.66326
G1 X42.862 Y107.438 E10.79582
G1 X42.562 Y107.138 E10.81480
G1 X41.227 Y105.242 E10.91852
G1 X40.579 Y102.350 E11.05108
G1 X40.579 Y47.650 E13.49780
G1 X40.976 Y45.365 E13.60152
G1 X42.562 Y42.862 E13.73408
G1 X42.820 Y42.604 E13.75038
G1 X43.135 Y42.835 F6000.000
G1 F1800
G1 X44.982 Y41.548 E13.85108
G1 X47.650 Y40.964 E13.97323
G1 X102.350 Y40.964 E16.41995
G1 X104.566 Y41.361 E16.52065
G1 X106.865 Y42.835 E16.64280
G1 X107.165 Y43.135 E16.66178
G1 X108.452 Y44.982 E16.76248
G1 X109.036 Y47.650 E16.88463
G1 X109.036 Y102.350 E19.33135
G1 X108.639 Y104.566 E19.43205
G1 X107.165 Y106.865 E19.55420
G1 X106.865 Y107.165 E19.57318
G1 X105.018 Y108.452 E19.67388
G1 X102.350 Y109.036 E19.79603
G1 X47.650 Y109.036 E22.24275
G1 X45.434 Y108.639 E22.34346
G1 X43.135 Y107.165 E22.46561
G1 X42.835 Y106.865 E22.48458
G1 X41.548 Y105.018 E22.58529
G1 X40.964 Y102.350 E22.70744
G1 X40.964 Y47.650 E25.15416
G1 X41.361 Y45.434 E25.25486
G1 X42.835 Y43.135 E25.37701
G1 X43.092 Y42.877 E25.39330
G1 E23.39330 F1200.00000
G92 E0
G1 Z0.800 F6000.000
G1 X59.124 Y95.000 F6000.000
G1 Z0.300 F6000.000
G1 E2.00000 F1200.00000
G1 F1800
G1 X58.941 Y96.216 E2.05499
G1 X58.408 Y97.323 E2.10998
G1 X58.067 Y97.691 E2.13239
G1 X57.571 Y98.224 E2.16497
G1 X56.507 Y98.839 E2.21995
G1 X55.308 Y99.113 E2.27494
G1 X54.082 Y99.021 E2.32993
G1 X52.938 Y98.572 E2.38492
G1 X52.171 Y97.960 E2.42880
G1 X51.977 Y97.805 E2.43991
G1 X51.284 Y96.789 E2.49490
G1 X50.922 Y95.615 E2.54989
G1 X50.922 Y94.385 E2.60487
G1 X51.070 Y93.907 E2.62729
G1 X51.284 Y93.211 E2.65986
G1 X51.977 Y92.195 E2.71485
G1 X52.938 Y91.428 E2.76984
G1 X54.082 Y90.979 E2.82483
G1 X55.308 Y90.887 E2.87981
G1 X56.507 Y91.161 E2.93480
G1 X57.571 Y91.776 E2.98979
G1 X58.408 Y92.677 E3.04478
G1 X58.941 Y93.784 E3.09977
G1 X59.115 Y94.941 E3.15207
G1 X58.734 Y95.000 F6000.000
G1 F1800
G1 X58.568 Y96.101 E3.20186
G1 X58.085 Y97.104 E3.25165
G1 X57.784 Y97.428 E3.27146
G1 X57.328 Y97.919 E3.30144
G1 X56.364 Y98.476 E3.35123
G1 X55.279 Y98.724 E3.40102
G1 X54.169 Y98.641 E3.45080
G1 X53.133 Y98.234 E3.50059
G1 X52.411 Y97.659 E3.54187
G1 X52.263 Y97.540 E3.55038
G1 X51.636 Y96.620 E3.60017
G1 X51.308 Y95.557 E3.64996
G1 X51.308 Y94.443 E3.69975
G1 X51.438 Y94.020 E3.71956
G1 X51.636 Y93.380 E3.74954
G1 X52.263 Y92.460 E3.79933
G1 X53.133 Y91.766 E3.84912
G1 X54.169 Y91.359 E3.89891
G1 X55.279 Y91.276 E3.94869
G1 X56.364 Y91.524 E3.99848
G1 X57.328 Y92.081 E4.04827
G1 X58.085 Y92.896 E4.09806
G1 X58.568 Y93.899 E4.14785
G1 X58.725 Y94.941 E4.19495
G1 X58.344 Y95.000 F6000.000
G1 F1800
G1 X58.196 Y95.986 E4.23954
G1 X57.763 Y96.884 E4.28413
G1 X57.501 Y97.166 E4.30134
G1 X57.085 Y97.615 E4.32872
G1 X56.222 Y98.113 E4.37331
G1 X55.250 Y98.335 E4.41790
G1 X54.256 Y98.260 E4.46249
G1 X53.328 Y97.896 E4.50708
G1 X52.652 Y97.357 E4.54576
G1 X52.549 Y97.275 E4.55167
G1 X51.987 Y96.451 E4.59626
G1 X51.693 Y95.498 E4.64085
G1 X51.693 Y94.502 E4.68543
G1 X51.807 Y94.134 E4.70265
G1 X51.987 Y93.549 E4.73002
G1 X52.549 Y92.725 E4.77461
G1 X53.328 Y92.104 E4.81920
G1 X54.256 Y91.740 E4.86379
G1 X55.250 Y91.665 E4.90838
G1 X56.222 Y91.887 E4.95297
G1 X57.085 Y92.385 E4.99756
G1 X57.763 Y93.116 E5.04215
G1 X58.196 Y94.014 E5.08674
G1 X58.335 Y94.941 E5.12864
G1 X58.691 Y95.200 F6000.000
G1 E3.12864 F1200.00000
G92 E0
G1 Z0.800 F6000.000
G1 X90.922 Y94.385 F6000.000
G1 Z0.300 F6000.000
G1 E2.00000 F1200.00000
G1 F1800
G1 X91.284 Y93.211 E2.05499
G1 X91.977 Y92.195 E2.10998
G1 X92.938 Y91.428 E2.16497
G1 X94.082 Y90.979 E2.21996
G1 X95.308 Y90.887 E2.27494
G1 X96.507 Y91.161 E2.32993
G1 X97.571 Y91.776 E2.38492
G1 X98.408 Y92.677 E2.43991
G1 X98.941 Y93.784 E2.49490
G1 X99.124 Y95.000 E2.54989
G1 X98.941 Y96.216 E2.60488
G1 X98.408 Y97.323 E2.65986
G1 X98.067 Y97.691 E2.68228
G1 X97.571 Y98.224 E2.71485
G1 X96.507 Y98.839 E2.76984
G1 X95.308 Y99.113 E2.82483
G1 X94.082 Y99.021 E2.87981
G1 X92.938 Y98.572 E2.93480
G1 X91.977 Y97.805 E2.98980
G1 X91.284 Y96.789 E3.04478
G1 X90.922 Y95.615 E3.09977
G1 X90.922 Y94.445 E3.15207
G1 X91.308 Y94.443 F6000.000
G1 F1800
G1 X91.636 Y93.380 E3.20186
G1 X92.263 Y92.460 E3.25165
G1 X93.133 Y91.766 E3.30144
G1 X94.169 Y91.359 E3.35123
G1 X95.279 Y91.276 E3.40102
G1 X96.364 Y91.524 E3.45081
G1 X97.328 Y92.081 E3.50060
G1 X98.085 Y92.896 E3.55038
G1 X98.568 Y93.899 E3.60017
G1 X98.734 Y95.000 E3.64996
G1 X98.568 Y96.101 E3.69975
G1 X98.085 Y97.104 E3.74954
G1 X97.784 Y97.428 E3.76935
G1 X97.328 Y97.919 E3.79933
G1 X96.364 Y98.476 E3.84912
G1 X95.279 Y98.724 E3.89891
G1 X94.169 Y98.641 E3.94869
G1 X93.133 Y98.234 E3.99848
G1 X92.263 Y97.540 E4.04827
G1 X91.636 Y96.620 E4.09806
G1 X91.308 Y95.557 E4.14785
G1 X91.308 Y94.503 E4.19495
G1 X91.693 Y94.502 F6000.000
G1 F1800
G1 X91.987 Y93.549 E4.23954
G1 X92.549 Y92.725 E4.28413
G1 X93.328 Y92.104 E4.32872
G1 X94.256 Y91.740 E4.37331
G1 X95.250 Y91.665 E4.41790
G1 X96.222 Y91.887 E4.46249
G1 X97.085 Y92.385 E4.50708
G1 X97.763 Y93.116 E4.55167
G1 X98.196 Y94.014 E4.59626
G1 X98.344 Y95.000 E4.64085
G1 X98.196 Y95.986 E4.68544
G1 X97.763 Y96.884 E4.73003
G1 X97.501 Y97.166 E4.74724
G1 X97.085 Y97.615 E4.77461
G1 X96.222 Y98.113 E4.81920
G1 X95.250 Y98.335 E4.86379
G1 X94.256 Y98.260 E4.90838
G1 X93.328 Y97.896 E4.95297
G1 X92.549 Y97.275 E4.99756
G1 X91.987 Y96.451 E5.04215
G1 X91.693 Y95.498 E5.08674
G1 X91.693 Y94.562 E5.12864
G1 X91.392 Y94.262 F6000.000
G1 E3.12864 F1200.00000
G92 E0
G1 Z0.800 F6000.000
G1 X94.082 Y59.021 F6000.000
G1 Z0.300 F6000.000
G1 E2.00000 F1200.00000
G1 F1800
G1 X92.938 Y58.572 E2.05499
G1 X91.977 Y57.805 E2.10998
G1 X91.284 Y56.789 E2.16497
G1 X90.922 Y55.615 E2.21996
G1 X90.922 Y54.385 E2.27494
G1 X91.284 Y53.211 E2.32993
G1 X91.977 Y52.195 E2.38492
G1 X92.938 Y51.428 E2.43991
G1 X94.082 Y50.979 E2.49490
G1 X95.308 Y50.887 E2.54988
G1 X96.507 Y51.161 E2.60487
G1 X97.571 Y51.776 E2.65986
G1 X98.408 Y52.677 E2.71485
G1 X98.941 Y53.784 E2.76984
G1 X99.124 Y55.000 E2.82483
G1 X98.941 Y56.216 E2.87982
G1 X98.408 Y57.323 E2.93480
G1 X97.571 Y58.224 E2.98979
G1 X96.507 Y58.839 E3.04478
G1 X95.308 Y59.113 E3.09977
G1 X94.142 Y59.025 E3.15207
G1 X94.169 Y58.641 F6000.000
G1 F1800
G1 X93.133 Y58.234 E3.20186
G1 X92.263 Y57.540 E3.25165
G1 X91.636 Y56.620 E3.30144
G1 X91.308 Y55.557 E3.35123
G1 X91.308 Y54.443 E3.40102
G1 X91.636 Y53.380 E3.45081
G1 X92.263 Y52.460 E3.50060
G1 X93.133 Y51.766 E3.55039
G1 X94.169 Y51.359 E3.60018
G1 X95.279 Y51.276 E3.64996
G1 X96.364 Y51.524 E3.69975
G1 X97.328 Y52.081 E3.74954
G1 X98.085 Y52.896 E3.79933
G1 X98.568 Y53.899 E3.84912
G1 X98.734 Y55.000 E3.89891
G1 X98.568 Y56.101 E3.94870
G1 X98.085 Y57.104 E3.99848
G1 X97.328 Y57.919 E4.04827
G1 X96.364 Y58.476 E4.09806
G1 X95.279 Y58.724 E4.14785
G1 X94.229 Y58.645 E4.19495
G1 X94.256 Y58.260 F6000.000
G1 F1800
G1 X93.328 Y57.896 E4.23954
G1 X92.549 Y57.275 E4.28413
G1 X91.987 Y56.451 E4.32872
G1 X91.693 Y55.498 E4.37331
G1 X91.693 Y54.502 E4.41790
G1 X91.987 Y53.549 E4.46249
G1 X92.549 Y52.725 E4.50708
G1 X93.328 Y52.104 E4.55167
G1 X94.256 Y51.740 E4.59626
G1 X95.250 Y51.665 E4.64084
G1 X96.222 Y51.887 E4.68544
G1 X97.085 Y52.385 E4.73002
G1 X97.763 Y53.116 E4.77461
G1 X98.196 Y54.014 E4.81920
G1 X98.344 Y55.000 E4.86379
G1 X98.196 Y55.986 E4.90838
G1 X97.763 Y56.884 E4.95297
G1 X97.085 Y57.615 E4.99756
G1 X96.222 Y58.113 E5.04215
G1 X95.250 Y58.335 E5.08674
G1 X94.316 Y58.265 E5.12864
G1 X93.984 Y58.554 F6000.000
G1 E3.12864 F1200.00000
G92 E0
G1 Z0.800 F6000.000
G1 X59.124 Y55.000 F6000.000
G1 Z0.300 F6000.000
G1 E2.00000 F1200.00000
G1 F1800
G1 X58.941 Y56.216 E2.05499
G1 X58.408 Y57.323 E2.10998
G1 X58.067 Y57.691 E2.13239
G1 X57.571 Y58.224 E2.16497
G1 X56.507 Y58.839 E2.21995
G1 X55.308 Y59.113 E2.27494
G1 X54.082 Y59.021 E2.32993
G1 X52.938 Y58.572 E2.38492
G1 X52.171 Y57.960 E2.42880
G1 X51.977 Y57.805 E2.43991
G1 X51.284 Y56.789 E2.49490
G1 X50.922 Y55.615 E2.54988
G1 X50.922 Y54.385 E2.60487
G1 X51.070 Y53.906 E2.62729
G1 X51.284 Y53.211 E2.65986
G1 X51.977 Y52.195 E2.71485
G1 X52.938 Y51.428 E2.76984
G1 X54.082 Y50.979 E2.82483
G1 X55.308 Y50.887 E2.87981
G1 X56.507 Y51.161 E2.93480
G1 X57.571 Y51.776 E2.98979
G1 X58.408 Y52.677 E3.04478
G1 X58.941 Y53.784 E3.09977
G1 X59.115 Y54.941 E3.15207
G1 X58.734 Y55.000 F6000.000
G1 F1800
G1 X58.568 Y56.101 E3.20186
G1 X58.085 Y57.104 E3.25165
G1 X57.784 Y57.428 E3.27146
G1 X57.328 Y57.919 E3.30144
G1 X56.364 Y58.476 E3.35123
G1 X55.279 Y58.724 E3.40102
G1 X54.169 Y58.641 E3.45080
G1 X53.133 Y58.234 E3.50059
G1 X52.411 Y57.659 E3.54187
G1 X52.263 Y57.540 E3.55039
G1 X51.636 Y56.620 E3.60017
G1 X51.308 Y55.557 E3.64996
G1 X51.308 Y54.443 E3.69975
G1 X51.438 Y54.020 E3.71956
G1 X51.636 Y53.380 E3.74954
G1 X52.263 Y52.460 E3.79933
G1 X53.133 Y51.766 E3.84912
G1 X54.169 Y51.359 E3.89891
G1 X55.279 Y51.276 E3.94869
G1 X56.364 Y51.524 E3.99848
G1 X57.328 Y52.081 E4.04827
G1 X58.085 Y52.896 E4.09806
G1 X58.568 Y53.899 E4.14785
G1 X58.725 Y54.941 E4.19495
G1 X58.344 Y55.000 F6000.000
G1 F1800
G1 X58.196 Y55.986 E4.23954
G1 X57.763 Y56.884 E4.28413
G1 X57.501 Y57.166 E4.30134
G1 X57.085 Y57.615 E4.32872
G1 X56.222 Y58.113 E4.37331
G1 X55.250 Y58.335 E4.41790
G1 X54.256 Y58.260 E4.46249
G1 X53.328 Y57.896 E4.50708
G1 X52.652 Y57.357 E4.54576
G1 X52.549 Y57.275 E4.55167
G1 X51.987 Y56.451 E4.59626
G1 X51.693 Y55.498 E4.64085
G1 X51.693 Y54.502 E4.68543
G1 X51.807 Y54.134 E4.70265
G1 X51.987 Y53.549 E4.73002
G1 X52.549 Y52.725 E4.77461
G1 X53.328 Y52.104 E4.81920
G1 X54.256 Y51.740 E4.86379
G1 X55.250 Y51.665 E4.90838
G1 X56.222 Y51.887 E4.95297
G1 X57.085 Y52.385 E4.99756
G1 X57.763 Y53.116 E5.04215
G1 X58.196 Y54.014 E5.08674
G1 X58.335 Y54.941 E5.12864
G1 X58.691 Y55.200 F6000.000
G1 E3.12864 F1200.00000
G92 E0
G1 Z0.800 F6000.000
G1 X48.346 Y48.346 F6000.000
G1 Z0.300 F6000.000
G1 E2.00000 F1200.00000
G1 F1800
G1 X101.654 Y48.346 E4.38444
G1 X101.654 Y101.654 E6.76887
G1 X48.346 Y101.654 E9.15331
G1 X48.346 Y48.406 E11.53506
G1 X47.961 Y47.961 F6000.000
G1 F1800
G1 X102.039 Y47.961 E13.95399
G1 X102.039 Y102.039 E16.37293
G1 X47.961 Y102.039 E18.79186
G1 X47.961 Y48.021 E21.20811
G1 X47.743 Y47.575 F6000.000
G1 F1800
G1 X102.257 Y47.575 E23.64649
G1 X102.425 Y47.743 E23.65713
G1 X102.425 Y102.257 E26.09552
G1 X102.257 Y102.425 E26.10616
G1 X47.743 Y102.425 E28.54454
G1 X47.575 Y102.257 E28.55518
G1 X47.575 Y47.743 E30.99356
G1 X47.701 Y47.617 E31.00152
G1 X48.089 Y47.775 F6000.000
G1 X49.046 Y48.418 F6000.000
G1 F1800
G1 X48.418 Y49.046 E31.04135
G1 X48.418 Y49.593 E31.06591
G1 X49.593 Y48.418 E31.14048
G1 X50.140 Y48.418 E31.16505
G1 X48.418 Y50.140 E31.27435
G1 X48.418 Y50.687 E31.29891
G1 X50.687 Y48.418 E31.44296
G1 X51.235 Y48.418 E31.46752
G1 X48.418 Y51.235 E31.64631
G1 X48.418 Y51.782 E31.67087
G1 X51.782 Y48.418 E31.88439
G1 X52.329 Y48.418 E31.90896
G1 X48.418 Y52.329 E32.15722
G1 X48.418 Y52.876 E32.18178
G1 X52.876 Y48.418 E32.46478
G1 X53.424 Y48.418 E32.48934
G1 X48.418 Y53.424 E32.80708
G1 X48.418 Y53.971 E32.83164
G1 X53.971 Y48.418 E33.18412
G1 X54.518 Y48.418 E33.20868
G1 X48.418 Y54.518 E33.59590
G1 X48.418 Y55.065 E33.62046
G1 X55.065 Y48.418 E34.04241
G1 X55.613 Y48.418 E34.06698
G1 X52.754 Y51.277 E34.24843
G1 X53.655 Y50.923 E34.29186
G1 X56.160 Y48.418 E34.45087
G1 X56.707 Y48.418 E34.47544
G1 X54.256 Y50.870 E34.63104
G1 X54.847 Y50.825 E34.65767
G1 X57.254 Y48.418 E34.81046
G1 X57.802 Y48.418 E34.83503
G1 X55.337 Y50.883 E34.99152
G1 X55.782 Y50.985 E35.01203
G1 X58.349 Y48.418 E35.17497
G1 X58.896 Y48.418 E35.19954
G1 X56.228 Y51.087 E35.36893
G1 X56.336 Y51.111 E35.37391
G1 X56.598 Y51.263 E35.38753
G1 X59.443 Y48.418 E35.56813
G1 X59.991 Y48.418 E35.59269
G1 X56.945 Y51.464 E35.78600
G1 X57.292 Y51.664 E35.80398
G1 X60.538 Y48.418 E36.01001
G1 X61.085 Y48.418 E36.03457
G1 X57.606 Y51.898 E36.25543
G1 X57.869 Y52.181 E36.27281
G1 X61.632 Y48.418 E36.51169
G1 X62.180 Y48.418 E36.53625
G1 X58.133 Y52.465 E36.79315
G1 X58.396 Y52.749 E36.81053
G1 X62.727 Y48.418 E37.08545
G1 X63.274 Y48.418 E37.11001
G1 X58.581 Y53.112 E37.40796
G1 X58.758 Y53.481 E37.42636
G1 X63.821 Y48.418 E37.74776
G1 X64.369 Y48.418 E37.77232
G1 X58.936 Y53.851 E38.11717
G1 X59.000 Y53.983 E38.12375
G1 X59.046 Y54.288 E38.13761
G1 X64.916 Y48.418 E38.51023
G1 X65.463 Y48.418 E38.53479
G1 X59.118 Y54.764 E38.93760
G1 X59.189 Y55.239 E38.95919
G1 X66.010 Y48.418 E39.39218
G1 X66.558 Y48.418 E39.41674
G1 X59.119 Y55.857 E39.88897
G1 X59.021 Y56.502 E39.91822
G1 X67.105 Y48.418 E40.43135
G1 X67.652 Y48.418 E40.45592
G1 X58.604 Y57.467 E41.03029
G1 E39.03029 F1200.00000
G92 E0
G1 Z0.800 F6000.000
G1 X51.221 Y52.810 F6000.000
G1 Z0.300 F6000.000
G1 E2.00000 F1200.00000
G1 F1800
G1 X48.418 Y55.613 E2.17793
G1 X48.418 Y56.160 E2.20250
G1 X50.977 Y53.601 E2.36493
G1 X50.850 Y54.014 E2.38431
G1 X50.850 Y54.276 E2.39606
G1 X48.418 Y56.707 E2.55042
G1 X48.418 Y57.254 E2.57498
G1 X50.850 Y54.823 E2.72934
G1 X50.852 Y55.368 E2.75379
G1 X48.418 Y57.802 E2.90830
G1 X48.418 Y58.349 E2.93287
G1 X50.981 Y55.786 E3.09557
G1 X51.110 Y56.204 E3.11522
G1 X48.418 Y58.896 E3.28612
G1 X48.418 Y59.443 E3.31068
G1 X51.240 Y56.622 E3.48977
G1 X51.456 Y56.953 E3.50751
G1 X48.418 Y59.991 E3.70036
G1 X48.418 Y60.538 E3.72492
G1 X51.678 Y57.278 E3.93185
G1 X51.900 Y57.604 E3.94953
G1 X48.418 Y61.085 E4.17055
G1 X48.418 Y61.632 E4.19511
G1 X52.166 Y57.885 E4.43298
G1 X52.470 Y58.128 E4.45046
G1 X48.418 Y62.180 E4.70765
G1 X48.418 Y62.727 E4.73222
G1 X52.774 Y58.371 E5.00874
G1 X53.085 Y58.607 E5.02627
G1 X48.418 Y63.274 E5.32253
G1 X48.418 Y63.821 E5.34710
G1 X53.478 Y58.761 E5.66830
G1 X53.871 Y58.916 E5.68726
G1 X48.418 Y64.369 E6.03341
G1 X48.418 Y64.916 E6.05798
G1 X54.264 Y59.070 E6.42908
G1 X54.309 Y59.087 E6.43124
G1 X54.760 Y59.121 E6.45154
G1 X48.418 Y65.463 E6.85413
G1 X48.418 Y66.010 E6.87869
G1 X55.269 Y59.159 E7.31359
G1 X55.651 Y59.188 E7.33076
G1 X55.829 Y59.147 E7.33895
G1 X48.418 Y66.558 E7.80935
G1 X48.418 Y67.105 E7.83391
G1 X56.538 Y58.985 E8.34932
G1 X56.963 Y58.888 E8.36889
G1 X57.482 Y58.589 E8.39578
G1 X48.418 Y67.652 E8.97110
G1 X48.418 Y68.199 E8.99566
G1 X68.199 Y48.418 E10.25134
G1 X68.747 Y48.418 E10.27591
G1 X48.418 Y68.747 E11.56632
G1 X48.418 Y69.294 E11.59089
G1 X69.294 Y48.418 E12.91604
G1 X69.841 Y48.418 E12.94061
G1 X48.418 Y69.841 E14.30050
G1 X48.418 Y70.388 E14.32506
G1 X70.389 Y48.418 E15.71970
G1 X70.936 Y48.418 E15.74426
G1 X48.418 Y70.936 E17.17363
G1 X48.418 Y71.483 E17.19819
G1 X71.483 Y48.418 E18.66230
G1 X72.030 Y48.418 E18.68687
G1 X48.418 Y72.030 E20.18572
G1 X48.418 Y72.578 E20.21028
G1 X72.578 Y48.418 E21.74387
G1 X73.125 Y48.418 E21.76843
G1 X48.418 Y73.125 E23.33676
G1 X48.418 Y73.672 E23.36132
G1 X73.672 Y48.418 E24.96438
G1 X74.219 Y48.418 E24.98895
G1 X48.418 Y74.219 E26.62675
G1 X48.418 Y74.767 E26.65131
G1 X74.767 Y48.418 E28.32385
G1 X75.314 Y48.418 E28.34842
G1 X48.418 Y75.314 E30.05570
G1 X48.418 Y75.861 E30.08026
