; generated by Slic3r 1.3.0 on 2021-02-04 at 17:19:57

; external perimeters extrusion width = 0.44mm (2.86mm^3/s)
; perimeters extrusion width = 0.56mm (4.14mm^3/s)
; infill extrusion width = 0.50mm (3.66mm^3/s)
; solid infill extrusion width = 0.56mm (3.10mm^3/s)
; top infill extrusion width = 0.45mm (2.44mm^3/s)

M107
;D3D:START:START
T0
M104 S215 T0

G21
G90
M107
T0
G28
G29
M109 T0 S215 T0
G0 F3000
M107
T0
G92 E0
G0 X0 Y149 Z0.1 F3600
G1 Y49 E6.5 F1200
G0 Z1
G92 E0
; Filament gcode

G21 ; set units to millimeters
G90 ; use absolute coordinates
M82 ; use absolute distances for extrusion
G92 E0
G1 Z0.300 F6000.000
G1 E-2.00000 F1200.00000
G92 E0
G1 Z0.800 F6000.000
G1 X36.528 Y41.187 F6000.000
G1 Z0.300 F6000.000
G1 E2.00000 F1200.00000
G1 F1800
G1 X38.693 Y40.356 E2.10372
G1 X40.000 Y40.229 E2.16245
G1 X110.000 Y40.229 E5.29353
G1 X112.285 Y40.626 E5.39726
G1 X114.301 Y41.770 E5.50098
G1 X115.813 Y43.528 E5.60470
G1 X116.644 Y45.693 E5.70842
G1 X116.771 Y47.000 E5.76714
G1 X116.771 Y103.000 E8.27201
G1 X116.374 Y105.285 E8.37574
G1 X115.230 Y107.301 E8.47946
G1 X113.472 Y108.813 E8.58318
G1 X111.307 Y109.644 E8.68690
G1 X110.000 Y109.771 E8.74562
G1 X40.000 Y109.771 E11.87671
G1 X37.715 Y109.374 E11.98043
G1 X35.699 Y108.230 E12.08415
G1 X34.187 Y106.472 E12.18788
G1 X33.356 Y104.307 E12.29160
G1 X33.229 Y103.000 E12.35032
G1 X33.229 Y47.000 E14.85519
G1 X33.626 Y44.715 E14.95891
G1 X34.770 Y42.699 E15.06263
G1 X36.483 Y41.226 E15.16367
G1 X36.896 Y41.419 F6000.000
G1 F1800
G1 X40.000 Y40.614 E15.30709
G1 X110.000 Y40.614 E18.43818
G1 X112.216 Y41.011 E18.53888
G1 X114.157 Y42.153 E18.63958
G1 X115.581 Y43.896 E18.74028
G1 X116.386 Y47.000 E18.88370
G1 X116.386 Y103.000 E21.38857
G1 X115.989 Y105.216 E21.48928
G1 X114.847 Y107.157 E21.58998
G1 X113.104 Y108.581 E21.69068
G1 X110.000 Y109.386 E21.83410
G1 X40.000 Y109.386 E24.96519
G1 X37.784 Y108.989 E25.06589
G1 X35.843 Y107.847 E25.16659
G1 X34.419 Y106.104 E25.26729
G1 X33.614 Y103.000 E25.41071
G1 X33.614 Y47.000 E27.91558
G1 X34.011 Y44.784 E28.01628
G1 X35.153 Y42.843 E28.11698
G1 X36.850 Y41.457 E28.21500
G1 E26.21500 F1200.00000
G92 E0
G1 Z0.800 F6000.000
G1 X103.996 Y102.004 F6000.000
G1 Z0.300 F6000.000
G1 E2.00000 F1200.00000
G1 F1800
G1 X103.996 Y47.996 E4.41575
G1 X109.004 Y47.996 E4.63973
G1 X109.004 Y102.004 E7.05548
G1 X104.056 Y102.004 E7.27678
G1 X103.611 Y102.389 F6000.000
G1 F1800
G1 X103.611 Y47.611 E9.72703
G1 X109.389 Y47.611 E9.98551
G1 X109.389 Y102.389 E12.43575
G1 X103.671 Y102.389 E12.69155
G1 X103.225 Y102.775 F6000.000
G1 F1800
G1 X103.225 Y47.225 E15.17629
G1 X109.775 Y47.225 E15.46927
G1 X109.775 Y102.775 E17.95402
G1 X103.285 Y102.775 E18.24431
G1 X103.241 Y102.375 F6000.000
G1 E16.24431 F1200.00000
G92 E0
G1 Z0.800 F6000.000
G1 X108.304 Y101.932 F6000.000
G1 Z0.300 F6000.000
G1 E2.00000 F1200.00000
G1 F1800
G1 X108.932 Y101.304 E2.03983
G1 X108.932 Y100.757 E2.06440
G1 X107.757 Y101.932 E2.13898
G1 X107.210 Y101.932 E2.16355
G1 X108.932 Y100.210 E2.27288
G1 X108.932 Y99.662 E2.29746
G1 X106.662 Y101.932 E2.44154
G1 X106.115 Y101.932 E2.46611
G1 X108.932 Y99.115 E2.64495
G1 X108.932 Y98.568 E2.66952
G1 X105.568 Y101.932 E2.88311
G1 X105.020 Y101.932 E2.90768
G1 X108.932 Y98.020 E3.15602
G1 X108.932 Y97.473 E3.18059
G1 X104.473 Y101.932 E3.46368
G1 X104.068 Y101.932 E3.48185
G1 X104.068 Y101.789 E3.48825
G1 X108.932 Y96.926 E3.79704
G1 X108.932 Y96.378 E3.82161
G1 X104.068 Y101.242 E4.13039
G1 X104.068 Y100.694 E4.15497
G1 X108.932 Y95.831 E4.46375
G1 X108.932 Y95.284 E4.48833
G1 X104.068 Y100.147 E4.79711
G1 X104.068 Y99.600 E4.82168
G1 X108.932 Y94.736 E5.13047
G1 X108.932 Y94.189 E5.15504
G1 X104.068 Y99.052 E5.46382
G1 X104.068 Y98.505 E5.48840
G1 X108.932 Y93.641 E5.79718
G1 X108.932 Y93.094 E5.82175
G1 X104.068 Y97.958 E6.13054
G1 X104.068 Y97.410 E6.15511
G1 X108.932 Y92.547 E6.46390
G1 X108.932 Y91.999 E6.48847
G1 X104.068 Y96.863 E6.79725
G1 X104.068 Y96.316 E6.82183
G1 X108.932 Y91.452 E7.13061
G1 X108.932 Y90.905 E7.15518
G1 X104.068 Y95.768 E7.46397
G1 X104.068 Y95.221 E7.48854
G1 X108.932 Y90.357 E7.79733
G1 X108.932 Y89.810 E7.82190
G1 X104.068 Y94.673 E8.13068
G1 X104.068 Y94.126 E8.15526
G1 X108.932 Y89.263 E8.46404
G1 X108.932 Y88.715 E8.48861
G1 X104.068 Y93.579 E8.79740
G1 X104.068 Y93.031 E8.82197
G1 X108.932 Y88.168 E9.13075
G1 X108.932 Y87.621 E9.15533
G1 X104.068 Y92.484 E9.46411
G1 X104.068 Y91.937 E9.48869
G1 X108.932 Y87.073 E9.79747
G1 X108.932 Y86.526 E9.82204
G1 X104.068 Y91.389 E10.13083
G1 X104.068 Y90.842 E10.15540
G1 X108.932 Y85.978 E10.46418
G1 X108.932 Y85.431 E10.48876
G1 X104.068 Y90.295 E10.79754
G1 X104.068 Y89.747 E10.82211
G1 X108.932 Y84.884 E11.13090
G1 X108.932 Y84.336 E11.15547
G1 X104.068 Y89.200 E11.46426
G1 X104.068 Y88.653 E11.48883
G1 X108.932 Y83.789 E11.79761
G1 X108.932 Y83.242 E11.82219
G1 X104.068 Y88.105 E12.13097
G1 X104.068 Y87.558 E12.15554
G1 X108.932 Y82.694 E12.46433
G1 X108.932 Y82.147 E12.48890
G1 X104.068 Y87.010 E12.79769
G1 X104.068 Y86.463 E12.82226
G1 X108.932 Y81.600 E13.13104
G1 X108.932 Y81.052 E13.15562
G1 X104.068 Y85.916 E13.46440
G1 X104.068 Y85.368 E13.48897
G1 X108.932 Y80.505 E13.79776
G1 X108.932 Y79.958 E13.82233
G1 X104.068 Y84.821 E14.13111
G1 X104.068 Y84.274 E14.15569
G1 X108.932 Y79.410 E14.46447
G1 X108.932 Y78.863 E14.48905
G1 X104.068 Y83.726 E14.79783
G1 X104.068 Y83.179 E14.82240
G1 X108.932 Y78.316 E15.13119
G1 X108.932 Y77.768 E15.15576
G1 X104.068 Y82.632 E15.46454
G1 X104.068 Y82.084 E15.48912
G1 X108.932 Y77.221 E15.79790
G1 X108.932 Y76.673 E15.82247
G1 X104.068 Y81.537 E16.13126
G1 X104.068 Y80.990 E16.15583
G1 X108.932 Y76.126 E16.46462
G1 X108.932 Y75.579 E16.48919
G1 X104.068 Y80.442 E16.79797
G1 X104.068 Y79.895 E16.82255
G1 X108.932 Y75.031 E17.13133
G1 X108.932 Y74.484 E17.15590
G1 X104.068 Y79.347 E17.46469
G1 X104.068 Y78.800 E17.48926
G1 X108.932 Y73.937 E17.79805
G1 X108.932 Y73.389 E17.82262
G1 X104.068 Y78.253 E18.13140
G1 X104.068 Y77.705 E18.15598
G1 X108.932 Y72.842 E18.46476
G1 X108.932 Y72.295 E18.48933
G1 X104.068 Y77.158 E18.79812
G1 X104.068 Y76.611 E18.82269
G1 X108.932 Y71.747 E19.13147
G1 X108.932 Y71.200 E19.15605
G1 X104.068 Y76.063 E19.46483
G1 X104.068 Y75.516 E19.48941
G1 X108.932 Y70.653 E19.79819
G1 X108.932 Y70.105 E19.82276
G1 X104.068 Y74.969 E20.13155
G1 X104.068 Y74.421 E20.15612
G1 X108.932 Y69.558 E20.46490
G1 X108.932 Y69.010 E20.48948
G1 X104.068 Y73.874 E20.79826
G1 X104.068 Y73.327 E20.82283
G1 X108.932 Y68.463 E21.13162
G1 X108.932 Y67.916 E21.15619
G1 X104.068 Y72.779 E21.46498
G1 X104.068 Y72.232 E21.48955
G1 X108.932 Y67.368 E21.79833
G1 X108.932 Y66.821 E21.82291
G1 X104.068 Y71.685 E22.13169
G1 X104.068 Y71.137 E22.15626
G1 X108.932 Y66.274 E22.46505
G1 X108.932 Y65.726 E22.48962
G1 X104.068 Y70.590 E22.79841
G1 X104.068 Y70.042 E22.82298
G1 X108.932 Y65.179 E23.13176
G1 X108.932 Y64.632 E23.15634
G1 X104.068 Y69.495 E23.46512
G1 X104.068 Y68.948 E23.48969
G1 X108.932 Y64.084 E23.79848
G1 X108.932 Y63.537 E23.82305
G1 X104.068 Y68.400 E24.13183
G1 X104.068 Y67.853 E24.15641
G1 X108.932 Y62.990 E24.46519
G1 X108.932 Y62.442 E24.48976
G1 X104.068 Y67.306 E24.79855
G1 X104.068 Y66.758 E24.82312
G1 X108.932 Y61.895 E25.13191
G1 X108.932 Y61.347 E25.15648
G1 X104.068 Y66.211 E25.46526
G1 X104.068 Y65.664 E25.48984
G1 X108.932 Y60.800 E25.79862
G1 X108.932 Y60.253 E25.82319
G1 X104.068 Y65.116 E26.13198
G1 X104.068 Y64.569 E26.15655
G1 X108.932 Y59.705 E26.46533
G1 X108.932 Y59.158 E26.48991
G1 X104.068 Y64.022 E26.79869
G1 X104.068 Y63.474 E26.82327
G1 X108.932 Y58.611 E27.13205
G1 X108.932 Y58.063 E27.15662
G1 X104.068 Y62.927 E27.46541
G1 X104.068 Y62.379 E27.48998
G1 X108.932 Y57.516 E27.79876
G1 X108.932 Y56.969 E27.82334
G1 X104.068 Y61.832 E28.13212
G1 X104.068 Y61.285 E28.15669
G1 X108.932 Y56.421 E28.46548
G1 X108.932 Y55.874 E28.49005
G1 X104.068 Y60.737 E28.79884
G1 X104.068 Y60.190 E28.82341
G1 X108.932 Y55.327 E29.13219
G1 X108.932 Y54.779 E29.15677
G1 X104.068 Y59.643 E29.46555
G1 X104.068 Y59.095 E29.49012
G1 X108.932 Y54.232 E29.79891
G1 X108.932 Y53.685 E29.82348
G1 X104.068 Y58.548 E30.13226
G1 X104.068 Y58.001 E30.15684
G1 X108.932 Y53.137 E30.46562
G1 X108.932 Y52.590 E30.49019
G1 X104.068 Y57.453 E30.79898
G1 X104.068 Y56.906 E30.82355
G1 X108.932 Y52.042 E31.13234
G1 X108.932 Y51.495 E31.15691
G1 X104.068 Y56.359 E31.46569
G1 X104.068 Y55.811 E31.49027
G1 X108.932 Y50.948 E31.79905
G1 X108.932 Y50.400 E31.82362
G1 X104.068 Y55.264 E32.13241
G1 X104.068 Y54.716 E32.15698
G1 X108.932 Y49.853 E32.46576
G1 X108.932 Y49.306 E32.49034
G1 X104.068 Y54.169 E32.79912
G1 X104.068 Y53.622 E32.82369
G1 X108.932 Y48.758 E33.13248
G1 X108.932 Y48.211 E33.15705
G1 X104.068 Y53.074 E33.46584
G1 X104.068 Y52.527 E33.49041
G1 X108.527 Y48.068 E33.77350
G1 X107.980 Y48.068 E33.79807
G1 X104.068 Y51.980 E34.04641
G1 X104.068 Y51.432 E34.07099
G1 X107.432 Y48.068 E34.28457
G1 X106.885 Y48.068 E34.30915
G1 X104.068 Y50.885 E34.48798
G1 X104.068 Y50.338 E34.51256
G1 X106.338 Y48.068 E34.65664
G1 X105.790 Y48.068 E34.68121
G1 X104.068 Y49.790 E34.79054
G1 X104.068 Y49.243 E34.81512
G1 X105.243 Y48.068 E34.88970
G1 X104.696 Y48.068 E34.91427
G1 X104.068 Y48.695 E34.95409
G1 E32.95409 F1200.00000
G92 E0
G1 Z0.800 F6000.000
G1 X58.941 Y96.216 F6000.000
G1 Z0.300 F6000.000
G1 E2.00000 F1200.00000
G1 F1800
G1 X58.408 Y97.323 E2.05499
G1 X58.067 Y97.691 E2.07740
G1 X57.571 Y98.224 E2.10998
G1 X56.507 Y98.839 E2.16496
G1 X55.308 Y99.113 E2.21995
G1 X54.082 Y99.021 E2.27494
G1 X52.938 Y98.572 E2.32993
G1 X51.977 Y97.805 E2.38492
G1 X51.284 Y96.789 E2.43991
G1 X50.922 Y95.615 E2.49490
G1 X50.922 Y94.385 E2.54988
G1 X51.284 Y93.211 E2.60487
G1 X51.977 Y92.195 E2.65986
G1 X52.938 Y91.428 E2.71485
G1 X54.082 Y90.979 E2.76984
G1 X55.308 Y90.887 E2.82482
G1 X56.507 Y91.161 E2.87981
G1 X57.571 Y91.776 E2.93480
G1 X58.408 Y92.677 E2.98979
G1 X58.941 Y93.784 E3.04478
G1 X59.124 Y95.000 E3.09977
G1 X58.950 Y96.156 E3.15207
G1 X58.568 Y96.101 F6000.000
G1 F1800
G1 X58.085 Y97.104 E3.20186
G1 X57.784 Y97.428 E3.22167
G1 X57.328 Y97.919 E3.25165
G1 X56.364 Y98.476 E3.30144
G1 X55.279 Y98.724 E3.35123
G1 X54.169 Y98.641 E3.40101
G1 X53.133 Y98.234 E3.45080
G1 X52.263 Y97.540 E3.50059
G1 X51.636 Y96.620 E3.55038
G1 X51.308 Y95.557 E3.60017
G1 X51.308 Y94.443 E3.64996
G1 X51.636 Y93.380 E3.69975
G1 X52.263 Y92.460 E3.74954
G1 X53.133 Y91.766 E3.79933
G1 X54.169 Y91.359 E3.84912
G1 X55.279 Y91.276 E3.89890
G1 X56.364 Y91.524 E3.94869
G1 X57.328 Y92.081 E3.99848
G1 X58.085 Y92.896 E4.04827
G1 X58.568 Y93.899 E4.09806
G1 X58.734 Y95.000 E4.14785
G1 X58.577 Y96.041 E4.19495
G1 X58.196 Y95.986 F6000.000
G1 F1800
G1 X57.763 Y96.884 E4.23954
G1 X57.501 Y97.166 E4.25675
G1 X57.085 Y97.615 E4.28413
G1 X56.222 Y98.113 E4.32872
G1 X55.250 Y98.335 E4.37331
G1 X54.256 Y98.260 E4.41790
G1 X53.328 Y97.896 E4.46249
G1 X52.549 Y97.275 E4.50708
G1 X51.987 Y96.451 E4.55167
G1 X51.693 Y95.498 E4.59626
G1 X51.693 Y94.502 E4.64084
G1 X51.987 Y93.549 E4.68543
G1 X52.549 Y92.725 E4.73002
G1 X53.328 Y92.104 E4.77461
G1 X54.256 Y91.740 E4.81920
G1 X55.250 Y91.665 E4.86379
G1 X56.222 Y91.887 E4.90838
G1 X57.085 Y92.385 E4.95297
G1 X57.763 Y93.116 E4.99756
G1 X58.196 Y94.014 E5.04215
G1 X58.344 Y95.000 E5.08674
G1 X58.205 Y95.926 E5.12864
G1 X58.468 Y96.279 F6000.000
G1 E3.12864 F1200.00000
G92 E0
G1 Z0.800 F6000.000
G1 X90.922 Y95.615 F6000.000
G1 Z0.300 F6000.000
G1 E2.00000 F1200.00000
G1 F1800
G1 X90.922 Y94.385 E2.05499
G1 X91.070 Y93.907 E2.07740
G1 X91.284 Y93.211 E2.10998
G1 X91.977 Y92.195 E2.16496
G1 X92.938 Y91.428 E2.21995
G1 X94.082 Y90.979 E2.27494
G1 X95.308 Y90.887 E2.32993
G1 X96.507 Y91.161 E2.38492
G1 X97.571 Y91.776 E2.43991
G1 X98.408 Y92.677 E2.49489
G1 X98.941 Y93.784 E2.54988
G1 X99.124 Y95.000 E2.60487
G1 X98.941 Y96.216 E2.65986
G1 X98.408 Y97.323 E2.71485
G1 X97.571 Y98.224 E2.76984
G1 X96.507 Y98.839 E2.82482
G1 X95.308 Y99.113 E2.87981
G1 X94.082 Y99.021 E2.93480
G1 X92.938 Y98.572 E2.98979
G1 X91.977 Y97.805 E3.04478
G1 X91.284 Y96.789 E3.09977
G1 X90.940 Y95.672 E3.15207
G1 X91.308 Y95.557 F6000.000
G1 F1800
G1 X91.308 Y94.443 E3.20186
G1 X91.438 Y94.020 E3.22167
G1 X91.636 Y93.380 E3.25165
G1 X92.263 Y92.460 E3.30144
G1 X93.133 Y91.766 E3.35123
G1 X94.169 Y91.359 E3.40102
G1 X95.279 Y91.276 E3.45080
G1 X96.364 Y91.524 E3.50059
G1 X97.328 Y92.081 E3.55038
G1 X98.085 Y92.896 E3.60017
G1 X98.568 Y93.899 E3.64996
G1 X98.734 Y95.000 E3.69975
G1 X98.568 Y96.101 E3.74954
G1 X98.085 Y97.104 E3.79933
G1 X97.328 Y97.919 E3.84911
G1 X96.364 Y98.476 E3.89890
G1 X95.279 Y98.724 E3.94869
G1 X94.169 Y98.641 E3.99848
G1 X93.133 Y98.234 E4.04827
G1 X92.263 Y97.540 E4.09806
G1 X91.636 Y96.620 E4.14785
G1 X91.325 Y95.614 E4.19495
G1 X91.693 Y95.498 F6000.000
G1 F1800
G1 X91.693 Y94.502 E4.23954
G1 X91.807 Y94.134 E4.25675
G1 X91.987 Y93.549 E4.28413
G1 X92.549 Y92.725 E4.32872
G1 X93.328 Y92.104 E4.37331
G1 X94.256 Y91.740 E4.41790
G1 X95.250 Y91.665 E4.46248
G1 X96.222 Y91.887 E4.50708
G1 X97.085 Y92.385 E4.55166
G1 X97.763 Y93.116 E4.59625
G1 X98.196 Y94.014 E4.64084
G1 X98.344 Y95.000 E4.68543
G1 X98.196 Y95.986 E4.73002
G1 X97.763 Y96.884 E4.77461
G1 X97.085 Y97.615 E4.81920
G1 X96.222 Y98.113 E4.86379
G1 X95.250 Y98.335 E4.90838
G1 X94.256 Y98.260 E4.95297
G1 X93.328 Y97.896 E4.99755
G1 X92.549 Y97.275 E5.04215
G1 X91.987 Y96.451 E5.08673
G1 X91.711 Y95.556 E5.12864
G1 X91.321 Y95.352 F6000.000
G1 E3.12864 F1200.00000
G92 E0
G1 Z0.800 F6000.000
G1 X94.082 Y59.021 F6000.000
G1 Z0.300 F6000.000
G1 E2.00000 F1200.00000
G1 F1800
G1 X92.938 Y58.572 E2.05499
G1 X91.977 Y57.805 E2.10998
G1 X91.284 Y56.789 E2.16497
G1 X90.922 Y55.615 E2.21996
G1 X90.922 Y54.385 E2.27494
G1 X91.284 Y53.211 E2.32993
G1 X91.977 Y52.195 E2.38492
G1 X92.938 Y51.428 E2.43991
G1 X94.082 Y50.979 E2.49490
G1 X95.308 Y50.887 E2.54988
G1 X96.507 Y51.161 E2.60487
G1 X97.571 Y51.776 E2.65986
G1 X98.408 Y52.677 E2.71485
G1 X98.941 Y53.784 E2.76984
G1 X99.124 Y55.000 E2.82483
G1 X98.941 Y56.216 E2.87982
G1 X98.408 Y57.323 E2.93480
G1 X97.571 Y58.224 E2.98979
G1 X96.507 Y58.839 E3.04478
G1 X95.308 Y59.113 E3.09977
G1 X94.142 Y59.025 E3.15207
G1 X94.169 Y58.641 F6000.000
G1 F1800
G1 X93.133 Y58.234 E3.20186
G1 X92.263 Y57.540 E3.25165
G1 X91.636 Y56.620 E3.30144
G1 X91.308 Y55.557 E3.35123
G1 X91.308 Y54.443 E3.40102
G1 X91.636 Y53.380 E3.45081
G1 X92.263 Y52.460 E3.50060
G1 X93.133 Y51.766 E3.55039
G1 X94.169 Y51.359 E3.60018
G1 X95.279 Y51.276 E3.64996
G1 X96.364 Y51.524 E3.69975
G1 X97.328 Y52.081 E3.74954
G1 X98.085 Y52.896 E3.79933
G1 X98.568 Y53.899 E3.84912
G1 X98.734 Y55.000 E3.89891
G1 X98.568 Y56.101 E3.94870
G1 X98.085 Y57.104 E3.99848
G1 X97.328 Y57.919 E4.04827
G1 X96.364 Y58.476 E4.09806
G1 X95.279 Y58.724 E4.14785
G1 X94.229 Y58.645 E4.19495
G1 X94.256 Y58.260 F6000.000
G1 F1800
G1 X93.328 Y57.896 E4.23954
G1 X92.549 Y57.275 E4.28413
G1 X91.987 Y56.451 E4.32872
G1 X91.693 Y55.498 E4.37331
G1 X91.693 Y54.502 E4.41790
G1 X91.987 Y53.549 E4.46249
G1 X92.549 Y52.725 E4.50708
G1 X93.328 Y52.104 E4.55167
G1 X94.256 Y51.740 E4.59626
G1 X95.250 Y51.665 E4.64084
G1 X96.222 Y51.887 E4.68544
G1 X97.085 Y52.385 E4.73002
G1 X97.763 Y53.116 E4.77461
G1 X98.196 Y54.014 E4.81920
G1 X98.344 Y55.000 E4.86379
G1 X98.196 Y55.986 E4.90838
G1 X97.763 Y56.884 E4.95297
G1 X97.085 Y57.615 E4.99756
G1 X96.222 Y58.113 E5.04215
G1 X95.250 Y58.335 E5.08674
G1 X94.316 Y58.265 E5.12864
G1 X93.984 Y58.554 F6000.000
G1 E3.12864 F1200.00000
G92 E0
G1 Z0.800 F6000.000
G1 X59.124 Y55.000 F6000.000
G1 Z0.300 F6000.000
G1 E2.00000 F1200.00000
G1 F1800
G1 X58.941 Y56.216 E2.05499
G1 X58.408 Y57.323 E2.10998
G1 X58.067 Y57.691 E2.13239
G1 X57.571 Y58.224 E2.16497
G1 X56.507 Y58.839 E2.21995
G1 X55.308 Y59.113 E2.27494
G1 X54.082 Y59.021 E2.32993
G1 X52.938 Y58.572 E2.38492
G1 X52.171 Y57.960 E2.42880
G1 X51.977 Y57.805 E2.43991
G1 X51.284 Y56.789 E2.49490
G1 X50.922 Y55.615 E2.54988
G1 X50.922 Y54.385 E2.60487
G1 X51.070 Y53.906 E2.62729
G1 X51.284 Y53.211 E2.65986
G1 X51.977 Y52.195 E2.71485
G1 X52.938 Y51.428 E2.76984
G1 X54.082 Y50.979 E2.82483
